;FLAVOR:Marlin
;TIME:25541
;Filament used: 21.428m
;Layer height: 0.2
;MINX:81.8
;MINY:49.3
;MINZ:0.3
;MAXX:188.2
;MAXY:152.3
;MAXZ:28.1
;Generated with Cura_SteamEngine 5.2.2
M140 S60
M105
M190 S60
M104 S190
M105
M109 S190
M82 ;absolute extrusion mode
G21 ;metric values
G90 ;absolute positioning
M82 ;set extruder to absolute mode
M107 ;start with the fan off
G28 X0 Y0 ;move X/Y to min endstops
G28 Z0 ;move Z to min endstops
;nozzle brush start
G1 X-3 Y40
G1 X-3 Y5
G1 X-3 Y40
G1 X-3 Y5
G1 Z15.0 F60 ;move the platform down 15mm
G92 E0 ;zero the extruded length
G1 F200 E3 ;extrude 3mm of feed stock
G92 E0 ;zero the extruded length again
G1 F60
M117 Printing...
G5
G92 E0
G92 E0
G1 F1500 E-6.5
;LAYER_COUNT:140
;LAYER:0
M107
M204 S300
M205 X8.18 Y8.18
G0 F1800 X98.284 Y66.44 Z0.3
M205 X3 Y3
;TYPE:SKIRT
G1 F1500 E0
G1 F1200 X99.199 Y65.396 E0.06926
G1 X100.982 Y63.309 E0.2062
G1 X102.692 Y61.188 E0.34213
G1 X104.354 Y59.002 E0.47913
G1 X105.959 Y56.763 E0.61657
G1 X107.468 Y54.528 E0.75111
G1 X108.974 Y52.155 E0.89133
G1 X109.775 Y50.843 E0.96802
G1 X110.071 Y50.434 E0.99321
G1 X110.429 Y50.076 E1.01847
G1 X110.838 Y49.779 E1.04368
G1 X111.289 Y49.551 E1.0689
G1 X111.77 Y49.396 E1.09411
G1 X112.498 Y49.3 E1.13074
G1 X161.839 Y49.3 E3.59237
G1 X162.539 Y49.31 E3.6273
G1 X163.042 Y49.357 E3.65251
G1 X163.532 Y49.483 E3.67775
G1 X163.995 Y49.685 E3.70295
G1 X164.422 Y49.957 E3.72821
G1 X164.8 Y50.292 E3.75341
G1 X165.12 Y50.683 E3.77861
G1 X165.427 Y51.232 E3.80999
G1 X166.498 Y53.688 E3.94367
G1 X167.67 Y56.186 E4.08133
G1 X168.889 Y58.602 E4.21634
G1 X170.204 Y61.035 E4.35431
G1 X171.553 Y63.371 E4.4889
G1 X173.013 Y65.744 E4.6279
G1 X174.496 Y68.006 E4.76284
G1 X176.061 Y70.251 E4.89937
G1 X177.716 Y72.488 E5.0382
G1 X179.358 Y74.581 E5.17092
G1 X181.152 Y76.739 E5.31093
G1 X182.95 Y78.783 E5.44674
G1 X184.807 Y80.777 E5.58268
G1 X186.79 Y82.786 E5.72351
G1 X187.237 Y83.227 E5.75484
G1 X187.568 Y83.609 E5.78006
G1 X187.834 Y84.039 E5.80528
G1 X188.03 Y84.505 E5.83051
G1 X188.149 Y84.997 E5.85576
G1 X188.2 Y85.533 E5.88262
G1 X188.2 Y118.839 E7.54426
G1 X188.19 Y119.542 E7.57934
G1 X188.143 Y120.045 E7.60454
G1 X188.017 Y120.535 E7.62979
G1 X187.815 Y120.998 E7.65499
G1 X187.544 Y121.425 E7.68022
G1 X187.106 Y121.897 E7.71234
G1 X184.953 Y123.794 E7.8555
G1 X182.948 Y125.667 E7.99239
G1 X181.03 Y127.562 E8.12691
G1 X179.115 Y129.564 E8.26512
G1 X177.273 Y131.603 E8.40221
G1 X175.512 Y133.666 E8.53753
G1 X173.791 Y135.802 E8.67439
G1 X172.15 Y137.959 E8.8096
G1 X171.711 Y138.549 E8.84629
G1 X171.379 Y138.929 E8.87147
G1 X170.99 Y139.253 E8.89672
G1 X170.556 Y139.511 E8.92191
G1 X170.086 Y139.698 E8.94715
G1 X169.592 Y139.808 E8.9724
G1 X168.911 Y139.849 E9.00643
G1 X101.511 Y139.85 E12.36903
G1 X100.812 Y139.84 E12.40391
G1 X100.309 Y139.793 E12.42912
G1 X99.819 Y139.667 E12.45436
G1 X99.355 Y139.465 E12.4796
G1 X98.929 Y139.193 E12.50482
G1 X98.551 Y138.858 E12.53002
G1 X98.231 Y138.467 E12.55523
G1 X97.983 Y138.045 E12.57965
G1 X97.501 Y137.059 E12.6344
G1 X97.228 Y136.478 E12.66643
G1 X96.009 Y134.059 E12.80157
G1 X94.701 Y131.64 E12.93877
G1 X93.326 Y129.261 E13.07585
G1 X91.908 Y126.959 E13.21074
G1 X90.396 Y124.652 E13.34836
G1 X88.804 Y122.369 E13.48721
G1 X87.196 Y120.194 E13.62216
G1 X85.541 Y118.085 E13.75591
G1 X83.749 Y115.929 E13.89577
G1 X83.336 Y115.46 E13.92695
G1 X82.581 Y114.58 E13.9848
G1 X82.283 Y114.171 E14.01005
G1 X82.054 Y113.721 E14.03524
G1 X81.898 Y113.24 E14.06046
G1 X81.8 Y112.504 E14.09751
G1 X81.8 Y93.161 E15.06253
G1 X81.81 Y92.459 E15.09756
G1 X81.857 Y91.956 E15.12276
G1 X81.983 Y91.466 E15.14801
G1 X82.185 Y91.003 E15.17321
G1 X82.604 Y90.395 E15.21005
G1 X84.698 Y87.953 E15.37054
G1 X86.391 Y85.854 E15.50507
G1 X88.042 Y83.685 E15.64107
G1 X89.655 Y81.437 E15.7791
G1 X91.186 Y79.17 E15.91558
G1 X92.651 Y76.863 E16.05192
G1 X94.053 Y74.511 E16.18853
G1 X95.391 Y72.114 E16.32549
G1 X96.65 Y69.702 E16.46123
G1 X97.974 Y66.968 E16.61278
G1 X98.284 Y66.44 E16.64333
M205 X8.18 Y8.18
G1 F1500 E10.14333
;MESH:base_plate.stl
G0 F1800 X98.284 Y91.835
G0 X98.284 Y92.92
G0 X101.75 Y112.137
G1 F1500 E16.64333
G0 F1800 X101.328 Y112.137
M205 X3 Y3
;TYPE:WALL-INNER
G1 F1200 X101.449 Y112.388 E16.65723
G1 X101.45 Y136.05 E17.83773
G1 X168.55 Y136.05 E21.18536
G1 X168.555 Y119.423 E22.01489
G1 X168.65 Y119.168 E22.02847
G1 X168.868 Y118.97 E22.04316
G1 X169.108 Y118.901 E22.05562
G1 X184.4 Y118.9 E22.81854
G1 X184.4 Y86.1 E24.45494
G1 X169.097 Y86.098 E25.21841
G1 X168.886 Y86.04 E25.22932
G1 X168.636 Y85.812 E25.2462
G1 X168.551 Y85.546 E25.26014
G1 X168.55 Y68.95 E26.08811
G1 X162.431 Y68.946 E26.39339
G1 X162.145 Y68.834 E26.40872
G1 X162.036 Y68.731 E26.4162
G1 X161.9 Y68.47 E26.43088
G1 X161.9 Y53.1 E27.19769
G1 X113.1 Y53.1 E29.63233
G1 X113.098 Y68.409 E30.3961
G1 X113.016 Y68.657 E30.40914
G1 X112.862 Y68.829 E30.42065
G1 X112.721 Y68.908 E30.42872
G1 X112.539 Y68.948 E30.43801
G1 X101.45 Y68.95 E30.99125
G1 X101.447 Y92.558 E32.16905
G1 X101.383 Y92.775 E32.18034
G1 X101.276 Y92.923 E32.18945
G1 X101.067 Y93.06 E32.20192
G1 X100.896 Y93.099 E32.21067
G1 X85.6 Y93.1 E32.97379
G1 X85.6 Y111.9 E33.91173
G1 X100.902 Y111.902 E34.67515
G1 X101.194 Y112.008 E34.69064
G1 X101.328 Y112.137 E34.69992
M205 X8.18 Y8.18
G0 F1800 X101.75 Y112.137
G0 X101.749 Y92.637
G0 X100.997 Y92.636
M205 X3 Y3
;TYPE:WALL-OUTER
G1 F1200 X100.867 Y92.7 E34.70715
G1 X85.2 Y92.7 E35.48878
G1 X85.2 Y112.3 E36.46663
G1 X100.906 Y112.3 E37.25021
G1 X101.018 Y112.391 E37.25741
G1 X101.049 Y112.481 E37.26216
G1 X101.05 Y136.45 E38.45797
G1 X168.95 Y136.45 E41.84552
G1 X168.951 Y119.482 E42.69206
G1 X168.995 Y119.373 E42.69792
G1 X169.095 Y119.3 E42.7041
G1 X184.8 Y119.3 E43.48762
G1 X184.8 Y85.7 E45.16393
G1 X169.117 Y85.698 E45.94636
G1 X168.994 Y85.627 E45.95345
G1 X168.952 Y85.535 E45.95849
G1 X168.95 Y68.55 E46.80588
G1 X162.477 Y68.548 E47.12882
G1 X162.381 Y68.511 E47.13395
G1 X162.3 Y68.369 E47.14211
G1 X162.3 Y52.7 E47.92384
G1 X112.7 Y52.7 E50.39839
G1 X112.7 Y68.369 E51.18012
G1 X112.655 Y68.477 E51.18596
G1 X112.553 Y68.548 E51.19216
G1 X101.05 Y68.55 E51.76604
G1 X101.048 Y92.528 E52.96231
G1 X100.997 Y92.636 E52.96827
M205 X8.18 Y8.18
G0 F1800 X100.867 Y92.7
G0 X100.811 Y92.7
G0 X100.811 Y93.4
G0 X101.677 Y93.328
G0 X112.824 Y69.257
M205 X3 Y3
;TYPE:SKIN
G1 F1200 X112.574 Y69.307 E52.98099
G1 X101.81 Y69.31 E53.51801
G1 X101.808 Y92.562 E54.67805
G1 X101.703 Y92.943 E54.69777
G1 X101.564 Y93.145 E54.71
G1 X101.28 Y93.358 E54.72771
G1 X100.931 Y93.457 E54.74581
G1 X85.961 Y93.46 E55.49267
G1 X85.961 Y111.539 E56.39463
G1 X100.932 Y111.543 E57.14154
G1 X101.269 Y111.634 E57.15896
G1 X101.453 Y111.752 E57.16986
G1 X101.685 Y112.021 E57.18758
G1 X101.808 Y112.432 E57.20899
G1 X101.81 Y135.69 E58.36933
G1 X168.19 Y135.69 E61.68105
G1 X168.191 Y119.445 E62.49151
G1 X168.267 Y119.119 E62.50821
G1 X168.552 Y118.747 E62.53159
G1 X168.806 Y118.601 E62.54621
G1 X169.074 Y118.542 E62.5599
G1 X184.04 Y118.54 E63.30656
G1 X184.04 Y86.461 E64.90698
G1 X168.986 Y86.459 E65.65803
G1 X168.578 Y86.273 E65.6804
G1 X168.387 Y86.086 E65.69374
G1 X168.234 Y85.801 E65.70988
G1 X168.192 Y85.575 E65.72134
G1 X168.19 Y69.31 E66.53281
G1 X162.366 Y69.308 E66.82337
G1 X162.097 Y69.221 E66.83747
G1 X161.867 Y69.074 E66.85109
G1 X161.66 Y68.817 E66.86755
G1 X161.549 Y68.491 E66.88474
G1 X161.54 Y53.46 E67.63464
G1 X113.461 Y53.46 E70.03331
G1 X113.458 Y68.499 E70.78361
G1 X113.306 Y68.871 E70.80365
G1 X113.098 Y69.103 E70.8192
G1 X112.824 Y69.257 E70.83488
M205 X8.18 Y8.18
G0 F1800 X161.339 Y53.859
M205 X3 Y3
G1 F1200 X161.139 Y53.659 E70.84899
M205 X8.18 Y8.18
G0 F1800 X160.574 Y53.659
M205 X3 Y3
G1 F1200 X161.339 Y54.425 E70.903
M205 X8.18 Y8.18
G0 F1800 X161.339 Y54.99
M205 X3 Y3
G1 F1200 X160.008 Y53.659 E70.99691
M205 X8.18 Y8.18
G0 F1800 X159.442 Y53.659
M205 X3 Y3
G1 F1200 X161.34 Y55.557 E71.13083
M205 X8.18 Y8.18
G0 F1800 X161.34 Y56.123
M205 X3 Y3
G1 F1200 X158.876 Y53.659 E71.30467
M205 X8.18 Y8.18
G0 F1800 X158.311 Y53.659
M205 X3 Y3
G1 F1200 X161.34 Y56.688 E71.51839
M205 X8.18 Y8.18
G0 F1800 X161.34 Y57.254
M205 X3 Y3
G1 F1200 X157.745 Y53.659 E71.77203
M205 X8.18 Y8.18
G0 F1800 X157.179 Y53.659
M205 X3 Y3
G1 F1200 X161.341 Y57.82 E72.06565
M205 X8.18 Y8.18
G0 F1800 X161.341 Y58.386
M205 X3 Y3
G1 F1200 X156.614 Y53.659 E72.39916
M205 X8.18 Y8.18
G0 F1800 X156.048 Y53.659
M205 X3 Y3
G1 F1200 X161.341 Y58.952 E72.77261
M205 X8.18 Y8.18
G0 F1800 X161.341 Y59.518
M205 X3 Y3
G1 F1200 X155.482 Y53.659 E73.186
M205 X8.18 Y8.18
G0 F1800 X154.917 Y53.659
M205 X3 Y3
G1 F1200 X161.341 Y60.084 E73.63928
M205 X8.18 Y8.18
G0 F1800 X161.341 Y60.649
M205 X3 Y3
G1 F1200 X154.351 Y53.659 E74.13246
M205 X8.18 Y8.18
G0 F1800 X153.785 Y53.659
M205 X3 Y3
G1 F1200 X161.342 Y61.216 E74.66565
M205 X8.18 Y8.18
G0 F1800 X161.342 Y61.782
M205 X3 Y3
G1 F1200 X153.22 Y53.659 E75.23874
M205 X8.18 Y8.18
G0 F1800 X152.654 Y53.659
M205 X3 Y3
G1 F1200 X161.342 Y62.347 E75.85172
M205 X8.18 Y8.18
G0 F1800 X161.342 Y62.913
M205 X3 Y3
G1 F1200 X152.088 Y53.659 E76.50464
M205 X8.18 Y8.18
G0 F1800 X151.523 Y53.659
M205 X3 Y3
G1 F1200 X161.343 Y63.479 E77.1975
M205 X8.18 Y8.18
G0 F1800 X161.343 Y64.045
M205 X3 Y3
G1 F1200 X150.957 Y53.659 E77.93028
M205 X8.18 Y8.18
G0 F1800 X150.391 Y53.659
M205 X3 Y3
G1 F1200 X161.343 Y64.611 E78.70301
M205 X8.18 Y8.18
G0 F1800 X161.344 Y65.177
M205 X3 Y3
G1 F1200 X149.826 Y53.659 E79.51566
M205 X8.18 Y8.18
G0 F1800 X149.26 Y53.659
M205 X3 Y3
G1 F1200 X161.344 Y65.743 E80.36826
M205 X8.18 Y8.18
G0 F1800 X161.344 Y66.308
M205 X3 Y3
G1 F1200 X148.694 Y53.659 E81.26075
M205 X8.18 Y8.18
G0 F1800 X148.128 Y53.659
M205 X3 Y3
G1 F1200 X161.344 Y66.875 E82.19321
M205 X8.18 Y8.18
G0 F1800 X161.344 Y67.441
M205 X3 Y3
G1 F1200 X147.563 Y53.659 E83.16557
M205 X8.18 Y8.18
G0 F1800 X146.997 Y53.659
M205 X3 Y3
G1 F1200 X161.344 Y68.006 E84.17782
M205 X8.18 Y8.18
G0 F1800 X161.376 Y68.604
M205 X3 Y3
G1 F1200 X146.431 Y53.659 E85.23227
M205 X8.18 Y8.18
G0 F1800 X145.866 Y53.659
M205 X3 Y3
G1 F1200 X167.99 Y75.784 E86.79328
M205 X8.18 Y8.18
G0 F1800 X167.99 Y76.349
M205 X3 Y3
G1 F1200 X145.3 Y53.659 E88.39418
M205 X8.18 Y8.18
G0 F1800 X144.734 Y53.659
M205 X3 Y3
G1 F1200 X167.99 Y76.915 E90.03502
M205 X8.18 Y8.18
G0 F1800 X167.99 Y77.481
M205 X3 Y3
G1 F1200 X144.169 Y53.659 E91.71575
M205 X8.18 Y8.18
G0 F1800 X143.603 Y53.659
M205 X3 Y3
G1 F1200 X167.991 Y78.047 E93.43646
M205 X8.18 Y8.18
G0 F1800 X167.991 Y78.613
M205 X3 Y3
G1 F1200 X143.037 Y53.659 E95.1971
M205 X8.18 Y8.18
G0 F1800 X142.472 Y53.659
M205 X3 Y3
G1 F1200 X167.991 Y79.178 E96.9976
M205 X8.18 Y8.18
G0 F1800 X167.991 Y79.744
M205 X3 Y3
G1 F1200 X141.906 Y53.659 E98.83804
M205 X8.18 Y8.18
G0 F1800 X141.34 Y53.659
M205 X3 Y3
G1 F1200 X167.992 Y80.311 E100.71848
M205 X8.18 Y8.18
G0 F1800 X167.992 Y80.876
M205 X3 Y3
G1 F1200 X140.775 Y53.659 E102.63879
M205 X8.18 Y8.18
G0 F1800 X140.209 Y53.659
M205 X3 Y3
G1 F1200 X167.992 Y81.442 E104.59903
M205 X8.18 Y8.18
G0 F1800 X167.992 Y82.008
M205 X3 Y3
G1 F1200 X139.643 Y53.659 E106.5992
M205 X8.18 Y8.18
G0 F1800 X139.078 Y53.659
M205 X3 Y3
G1 F1200 X167.992 Y82.573 E108.63924
M205 X8.18 Y8.18
G0 F1800 X167.993 Y83.14
M205 X3 Y3
G1 F1200 X138.512 Y53.659 E110.71928
M205 X8.18 Y8.18
G0 F1800 X137.946 Y53.659
M205 X3 Y3
G1 F1200 X167.993 Y83.705 E112.83923
M205 X8.18 Y8.18
G0 F1800 X167.993 Y84.271
M205 X3 Y3
G1 F1200 X137.38 Y53.659 E114.9991
M205 X8.18 Y8.18
G0 F1800 X136.815 Y53.659
M205 X3 Y3
G1 F1200 X167.993 Y84.837 E117.19888
M205 X8.18 Y8.18
G0 F1800 X167.993 Y85.402
M205 X3 Y3
G1 F1200 X136.249 Y53.659 E119.43856
M205 X8.18 Y8.18
G0 F1800 X135.683 Y53.659
M205 X3 Y3
G1 F1200 X183.839 Y101.814 E122.83619
M205 X8.18 Y8.18
G0 F1800 X183.839 Y101.249
M205 X3 Y3
G1 F1200 X169.25 Y86.66 E123.86552
M205 X8.18 Y8.18
G0 F1800 X169.815 Y86.66
M205 X3 Y3
G1 F1200 X183.839 Y100.683 E124.85495
M205 X8.18 Y8.18
G0 F1800 X183.839 Y100.117
M205 X3 Y3
G1 F1200 X170.381 Y86.66 E125.80445
M205 X8.18 Y8.18
G0 F1800 X170.947 Y86.66
M205 X3 Y3
G1 F1200 X183.839 Y99.552 E126.71405
M205 X8.18 Y8.18
G0 F1800 X183.839 Y98.986
M205 X3 Y3
G1 F1200 X171.512 Y86.66 E127.58375
M205 X8.18 Y8.18
G0 F1800 X172.078 Y86.66
M205 X3 Y3
G1 F1200 X183.839 Y98.42 E128.41352
M205 X8.18 Y8.18
G0 F1800 X183.839 Y97.855
M205 X3 Y3
G1 F1200 X172.644 Y86.66 E129.20339
M205 X8.18 Y8.18
G0 F1800 X173.21 Y86.66
M205 X3 Y3
G1 F1200 X183.839 Y97.289 E129.95332
M205 X8.18 Y8.18
G0 F1800 X183.839 Y96.723
M205 X3 Y3
G1 F1200 X173.775 Y86.66 E130.66336
M205 X8.18 Y8.18
G0 F1800 X174.342 Y86.66
M205 X3 Y3
G1 F1200 X183.839 Y96.158 E131.33346
M205 X8.18 Y8.18
G0 F1800 X183.839 Y95.592
M205 X3 Y3
G1 F1200 X174.907 Y86.66 E131.96366
M205 X8.18 Y8.18
G0 F1800 X175.473 Y86.66
M205 X3 Y3
G1 F1200 X183.839 Y95.026 E132.55392
M205 X8.18 Y8.18
G0 F1800 X183.839 Y94.46
M205 X3 Y3
G1 F1200 X176.039 Y86.66 E133.10426
M205 X8.18 Y8.18
G0 F1800 X176.604 Y86.66
M205 X3 Y3
G1 F1200 X183.839 Y93.895 E133.61472
M205 X8.18 Y8.18
G0 F1800 X183.839 Y93.329
M205 X3 Y3
G1 F1200 X177.17 Y86.66 E134.08526
M205 X8.18 Y8.18
G0 F1800 X177.736 Y86.66
M205 X3 Y3
G1 F1200 X183.839 Y92.763 E134.51586
M205 X8.18 Y8.18
G0 F1800 X183.839 Y92.198
M205 X3 Y3
G1 F1200 X178.301 Y86.66 E134.90659
M205 X8.18 Y8.18
G0 F1800 X178.867 Y86.66
M205 X3 Y3
G1 F1200 X183.839 Y91.632 E135.25739
M205 X8.18 Y8.18
G0 F1800 X183.839 Y91.066
M205 X3 Y3
G1 F1200 X179.434 Y86.661 E135.56819
M205 X8.18 Y8.18
G0 F1800 X179.999 Y86.661
M205 X3 Y3
G1 F1200 X183.839 Y90.501 E135.83912
M205 X8.18 Y8.18
G0 F1800 X183.839 Y89.935
M205 X3 Y3
G1 F1200 X180.565 Y86.661 E136.07012
M205 X8.18 Y8.18
G0 F1800 X181.131 Y86.661
M205 X3 Y3
G1 F1200 X183.839 Y89.369 E136.26119
M205 X8.18 Y8.18
G0 F1800 X183.839 Y88.804
M205 X3 Y3
G1 F1200 X181.696 Y86.661 E136.41239
M205 X8.18 Y8.18
G0 F1800 X182.262 Y86.661
M205 X3 Y3
G1 F1200 X183.839 Y88.238 E136.52365
M205 X8.18 Y8.18
G0 F1800 X183.839 Y87.672
M205 X3 Y3
G1 F1200 X182.828 Y86.661 E136.59498
M205 X8.18 Y8.18
G0 F1800 X183.393 Y86.661
M205 X3 Y3
G1 F1200 X183.839 Y87.107 E136.62645
M205 X8.18 Y8.18
G0 F1800 X183.839 Y102.38
M205 X3 Y3
G1 F1200 X135.118 Y53.659 E140.06398
M205 X8.18 Y8.18
G0 F1800 X134.552 Y53.659
M205 X3 Y3
G1 F1200 X183.839 Y102.946 E143.54145
M205 X8.18 Y8.18
G0 F1800 X183.839 Y103.511
M205 X3 Y3
G1 F1200 X133.986 Y53.659 E147.05881
M205 X8.18 Y8.18
G0 F1800 X133.421 Y53.659
M205 X3 Y3
G1 F1200 X183.839 Y104.077 E150.61607
M205 X8.18 Y8.18
G0 F1800 X183.839 Y104.643
M205 X3 Y3
G1 F1200 X132.855 Y53.659 E154.21327
M205 X8.18 Y8.18
G0 F1800 X132.289 Y53.659
M205 X3 Y3
G1 F1200 X183.839 Y105.209 E157.8504
M205 X8.18 Y8.18
G0 F1800 X183.839 Y105.774
M205 X3 Y3
G1 F1200 X131.724 Y53.659 E161.52739
M205 X8.18 Y8.18
G0 F1800 X131.158 Y53.659
M205 X3 Y3
G1 F1200 X183.839 Y106.34 E165.24432
M205 X8.18 Y8.18
G0 F1800 X183.839 Y106.906
M205 X3 Y3
G1 F1200 X130.592 Y53.659 E169.00119
M205 X8.18 Y8.18
G0 F1800 X130.027 Y53.659
M205 X3 Y3
G1 F1200 X183.839 Y107.471 E172.79791
M205 X8.18 Y8.18
G0 F1800 X183.839 Y108.037
M205 X3 Y3
G1 F1200 X129.461 Y53.659 E176.63457
M205 X8.18 Y8.18
G0 F1800 X128.895 Y53.659
M205 X3 Y3
G1 F1200 X183.839 Y108.603 E180.51117
M205 X8.18 Y8.18
G0 F1800 X183.839 Y109.168
M205 X3 Y3
G1 F1200 X128.329 Y53.659 E184.42767
M205 X8.18 Y8.18
G0 F1800 X127.764 Y53.659
M205 X3 Y3
G1 F1200 X183.839 Y109.734 E188.38406
M205 X8.18 Y8.18
G0 F1800 X183.839 Y110.3
M205 X3 Y3
G1 F1200 X127.198 Y53.659 E192.38039
M205 X8.18 Y8.18
G0 F1800 X126.632 Y53.659
M205 X3 Y3
G1 F1200 X183.839 Y110.865 E196.41662
M205 X8.18 Y8.18
G0 F1800 X183.839 Y111.431
M205 X3 Y3
G1 F1200 X126.067 Y53.659 E200.49274
M205 X8.18 Y8.18
G0 F1800 X125.501 Y53.659
M205 X3 Y3
G1 F1200 X183.839 Y111.997 E204.6088
M205 X8.18 Y8.18
G0 F1800 X183.839 Y112.562
M205 X3 Y3
G1 F1200 X124.935 Y53.659 E208.76476
M205 X8.18 Y8.18
G0 F1800 X124.37 Y53.659
M205 X3 Y3
G1 F1200 X183.839 Y113.128 E212.96062
M205 X8.18 Y8.18
G0 F1800 X183.839 Y113.694
M205 X3 Y3
G1 F1200 X123.804 Y53.659 E217.19642
M205 X8.18 Y8.18
G0 F1800 X123.238 Y53.659
M205 X3 Y3
G1 F1200 X183.839 Y114.259 E221.47211
M205 X8.18 Y8.18
G0 F1800 X183.839 Y114.825
