;FLAVOR:Marlin
;TIME:26286
;Filament used: 21.7783m
;Layer height: 0.2
;MINX:32.791
;MINY:30.842
;MINZ:0.3
;MAXX:139.191
;MAXY:155.555
;MAXZ:28.1
;Generated with Cura_SteamEngine 5.2.2
M140 S60
M105
M190 S60
M104 S190
M105
M109 S190
M82 ;absolute extrusion mode
G21 ;metric values
G90 ;absolute positioning
M82 ;set extruder to absolute mode
M107 ;start with the fan off
G28 X0 Y0 ;move X/Y to min endstops
G28 Z0 ;move Z to min endstops
;nozzle brush start
G1 X-3 Y40
G1 X-3 Y5
G1 X-3 Y40
G1 X-3 Y5
G1 Z15.0 F60 ;move the platform down 15mm
G92 E0 ;zero the extruded length
G1 F200 E3 ;extrude 3mm of feed stock
G92 E0 ;zero the extruded length again
G1 F60
M117 Printing...
G5
G92 E0
G92 E0
G1 F1500 E-6.5
;LAYER_COUNT:140
;LAYER:0
M107
M204 S300
M205 X8.18 Y8.18
G0 F1800 X66.315 Y32.814 Z0.3
M205 X3 Y3
;TYPE:SKIRT
G1 F1500 E0
G1 F1200 X66.547 Y32.365 E0.02521
G1 X66.847 Y31.958 E0.05044
G1 X67.207 Y31.603 E0.07566
G1 X67.618 Y31.309 E0.10087
G1 X68.071 Y31.084 E0.12611
G1 X68.553 Y30.932 E0.15132
G1 X69.261 Y30.842 E0.18693
G1 X109.097 Y30.842 E2.17436
G1 X109.795 Y30.852 E2.20918
G1 X110.298 Y30.899 E2.23439
G1 X110.788 Y31.025 E2.25963
G1 X111.252 Y31.227 E2.28488
G1 X111.678 Y31.499 E2.31009
G1 X112.056 Y31.834 E2.33529
G1 X112.376 Y32.225 E2.3605
G1 X112.631 Y32.662 E2.38574
G1 X112.814 Y33.133 E2.41095
G1 X112.911 Y33.557 E2.43265
G1 X113.4 Y36.682 E2.59045
G1 X113.892 Y39.312 E2.72394
G1 X114.479 Y42.029 E2.86262
G1 X115.126 Y44.657 E2.99765
G1 X115.854 Y47.289 E3.13389
G1 X116.667 Y49.935 E3.27199
G1 X117.541 Y52.518 E3.40803
G1 X118.488 Y55.075 E3.54407
G1 X119.52 Y57.639 E3.68196
G1 X120.614 Y60.146 E3.81843
G1 X121.775 Y62.617 E3.95463
G1 X122.997 Y65.035 E4.0898
G1 X124.324 Y67.488 E4.22894
G1 X125.673 Y69.821 E4.36339
G1 X127.125 Y72.176 E4.50142
G1 X128.614 Y74.446 E4.63686
G1 X130.192 Y76.707 E4.77442
G1 X131.82 Y78.905 E4.91088
G1 X133.502 Y81.048 E5.04679
G1 X135.258 Y83.158 E5.18375
G1 X137.09 Y85.236 E5.32196
G1 X137.76 Y85.956 E5.37102
G1 X138.355 Y86.614 E5.41528
G1 X138.663 Y87.014 E5.44047
G1 X138.904 Y87.459 E5.46572
G1 X139.073 Y87.935 E5.49092
G1 X139.191 Y88.744 E5.53171
G1 X139.191 Y122.094 E7.19554
G1 X139.181 Y122.797 E7.23062
G1 X139.134 Y123.3 E7.25582
G1 X139.008 Y123.79 E7.28107
G1 X138.806 Y124.253 E7.30627
G1 X138.535 Y124.68 E7.3315
G1 X138.097 Y125.152 E7.36362
G1 X135.944 Y127.049 E7.50678
G1 X133.939 Y128.922 E7.64367
G1 X132.021 Y130.817 E7.77819
G1 X130.106 Y132.819 E7.9164
G1 X128.264 Y134.858 E8.05349
G1 X126.503 Y136.921 E8.18881
G1 X124.782 Y139.057 E8.32567
G1 X123.141 Y141.214 E8.46088
G1 X122.702 Y141.804 E8.49757
G1 X122.37 Y142.184 E8.52275
G1 X121.981 Y142.508 E8.548
G1 X121.547 Y142.766 E8.57319
G1 X121.077 Y142.953 E8.59843
G1 X120.583 Y143.063 E8.62368
G1 X119.902 Y143.104 E8.65771
G1 X52.502 Y143.105 E12.02031
G1 X51.803 Y143.095 E12.05519
G1 X51.3 Y143.048 E12.08039
G1 X50.81 Y142.922 E12.10564
G1 X50.346 Y142.72 E12.13088
G1 X49.92 Y142.448 E12.1561
G1 X49.542 Y142.113 E12.1813
G1 X49.222 Y141.722 E12.20651
G1 X48.974 Y141.3 E12.23093
G1 X48.492 Y140.314 E12.28568
G1 X48.219 Y139.733 E12.31771
G1 X47 Y137.314 E12.45285
G1 X45.692 Y134.895 E12.59005
G1 X44.317 Y132.516 E12.72713
G1 X42.899 Y130.214 E12.86202
G1 X41.387 Y127.907 E12.99963
G1 X39.795 Y125.624 E13.13849
G1 X38.187 Y123.449 E13.27344
G1 X36.532 Y121.34 E13.40719
G1 X34.74 Y119.184 E13.54705
G1 X34.327 Y118.715 E13.57823
G1 X33.572 Y117.835 E13.63608
G1 X33.274 Y117.426 E13.66133
G1 X33.045 Y116.976 E13.68652
G1 X32.889 Y116.495 E13.71174
G1 X32.791 Y115.759 E13.74879
G1 X32.791 Y96.416 E14.71381
G1 X32.801 Y95.714 E14.74884
G1 X32.848 Y95.211 E14.77404
G1 X32.974 Y94.721 E14.79928
G1 X33.176 Y94.258 E14.82449
G1 X33.595 Y93.65 E14.86133
G1 X35.689 Y91.208 E15.02182
G1 X37.382 Y89.109 E15.15635
G1 X39.033 Y86.94 E15.29235
G1 X40.646 Y84.692 E15.43038
G1 X42.177 Y82.425 E15.56686
G1 X43.642 Y80.118 E15.7032
G1 X45.044 Y77.766 E15.83981
G1 X46.382 Y75.369 E15.97677
G1 X47.641 Y72.957 E16.11251
G1 X48.969 Y70.215 E16.26451
G1 X49.277 Y69.707 E16.29415
G1 X49.624 Y69.238 E16.32325
G1 X51.207 Y67.032 E16.45871
G1 X52.744 Y64.757 E16.59569
G1 X54.222 Y62.432 E16.73314
G1 X55.646 Y60.043 E16.87189
G1 X56.956 Y57.699 E17.00586
G1 X58.23 Y55.256 E17.14332
G1 X59.417 Y52.818 E17.2786
G1 X60.558 Y50.293 E17.41684
G1 X61.61 Y47.777 E17.55289
G1 X62.597 Y45.216 E17.68982
G1 X63.502 Y42.656 E17.82529
G1 X64.341 Y40.051 E17.96183
G1 X65.108 Y37.412 E18.09893
G1 X65.81 Y34.718 E18.23783
G1 X66.157 Y33.294 E18.31095
G1 X66.315 Y32.814 E18.33616
M205 X8.18 Y8.18
G1 F1500 E11.83616
;MESH:lid_temp_sensor.stl
G0 F1800 X68.593 Y34.456
G0 X69.672 Y34.456
G0 X70.571 Y41.627
G1 F1500 E18.33616
G0 F1800 X70.736 Y41.964
M205 X3 Y3
;TYPE:WALL-INNER
G1 F1200 X70.966 Y41.766 E18.3513
G1 X72.891 Y40.818 E18.45835
G1 X72.606 Y40.363 E18.48514
G1 X72.606 Y38.416 E18.58228
G1 X72.673 Y38.139 E18.59649
G1 X72.857 Y37.919 E18.6108
G1 X75.028 Y36.851 E18.73151
G1 X75.343 Y36.851 E18.74723
G1 X77.558 Y37.946 E18.8705
G1 F975.6 X77.856 Y38.416 E18.90465
G1 F820.5 X77.855 Y40.464 E19.05408
G1 F827.6 X77.785 Y40.656 E19.06886
G1 F879.1 X77.551 Y40.895 E19.09164
G1 F872.7 X78.007 Y40.654 E19.12702
G1 F820.5 X78.29 Y40.654 E19.14767
G1 X78.454 Y40.71 E19.16032
G1 F884 X78.846 Y40.948 E19.19138
G1 X78.507 Y40.658 E19.22159
G1 F820.5 X78.442 Y40.461 E19.23673
G1 X78.442 Y38.416 E19.38594
G1 F975.6 X78.738 Y37.947 E19.41997
G1 F1200 X80.954 Y36.851 E19.54331
G1 X81.27 Y36.851 E19.55908
G1 X83.354 Y37.877 E19.67496
G1 X83.511 Y37.988 E19.68456
G1 X83.581 Y38.157 E19.69368
G1 X83.651 Y37.988 E19.70281
G1 X83.808 Y37.877 E19.7124
G1 X85.894 Y36.851 E19.82838
G1 X86.209 Y36.851 E19.8441
G1 X88.293 Y37.877 E19.95998
G1 X88.45 Y37.988 E19.96958
G1 X88.52 Y38.157 E19.9787
G1 X88.59 Y37.988 E19.98783
G1 X88.747 Y37.877 E19.99742
G1 X90.833 Y36.851 E20.1134
G1 X91.147 Y36.851 E20.12906
G1 X93.234 Y37.877 E20.24509
G1 X93.39 Y37.987 E20.25461
G1 X93.46 Y38.155 E20.26369
G1 X93.53 Y37.987 E20.27277
G1 X93.686 Y37.877 E20.28229
G1 X95.772 Y36.851 E20.39827
G1 X96.086 Y36.851 E20.41394
G1 X98.172 Y37.877 E20.52992
G1 X98.328 Y37.988 E20.53947
G1 X98.398 Y38.156 E20.54855
G1 X98.468 Y37.988 E20.55763
G1 X98.624 Y37.877 E20.56718
G1 X100.711 Y36.851 E20.6832
G1 X101.025 Y36.851 E20.69887
G1 X103.111 Y37.877 E20.81485
G1 X103.271 Y37.991 E20.82465
G1 X103.446 Y38.314 E20.84298
G1 X103.446 Y40.363 E20.9452
G1 X103.161 Y40.818 E20.97199
G1 X105.178 Y41.811 E21.08415
G1 X105.317 Y41.964 E21.09446
G1 X105.394 Y42.122 E21.10323
G1 X105.422 Y42.305 E21.11247
G1 X105.422 Y44.324 E21.21319
G1 X105.317 Y44.593 E21.2276
G1 X105.178 Y44.746 E21.23791
G1 X103.162 Y45.737 E21.34999
G1 X103.446 Y46.194 E21.37683
G1 X103.446 Y48.264 E21.4801
G1 X103.32 Y48.51 E21.49389
G1 X103.111 Y48.679 E21.5073
G1 X101.133 Y49.652 E21.61728
G1 X100.868 Y49.713 E21.63085
G1 X100.603 Y49.652 E21.64441
G1 X98.569 Y48.648 E21.75758
G1 X98.419 Y48.513 E21.76765
G1 F971.7 X98.198 Y48.201 E21.7912
G1 F817.7 X98.198 Y46.094 E21.94547
G1 F826.2 X98.266 Y45.9 E21.96036
G1 F877.5 X98.502 Y45.661 E21.98328
G1 F871.1 X98.046 Y45.903 E22.01876
G1 F820.5 X97.763 Y45.902 E22.0394
G1 X97.598 Y45.846 E22.05212
G1 F882.4 X97.208 Y45.609 E22.08308
G1 X97.545 Y45.898 E22.1132
G1 F820.5 X97.612 Y46.099 E22.12866
G1 F817.7 X97.612 Y48.201 E22.28256
G1 F971.7 X97.391 Y48.513 E22.30612
G1 F1200 X97.241 Y48.648 E22.31619
G1 X95.206 Y49.652 E22.4294
G1 X94.941 Y49.713 E22.44296
G1 X94.676 Y49.652 E22.45653
G1 X92.698 Y48.679 E22.56651
G1 X92.542 Y48.568 E22.57606
G1 X92.472 Y48.42 E22.58423
G1 X92.402 Y48.568 E22.59239
G1 X92.246 Y48.679 E22.60195
G1 X90.267 Y49.652 E22.71197
G1 X90.002 Y49.713 E22.72553
G1 X89.737 Y49.652 E22.7391
G1 X87.759 Y48.679 E22.84908
G1 X87.603 Y48.568 E22.85863
G1 X87.533 Y48.42 E22.8668
G1 X87.463 Y48.568 E22.87496
G1 X87.307 Y48.679 E22.88452
G1 X85.328 Y49.652 E22.99454
G1 X85.063 Y49.713 E23.0081
G1 X84.798 Y49.652 E23.02167
G1 X82.82 Y48.679 E23.13165
G1 X82.664 Y48.568 E23.1412
G1 X82.594 Y48.419 E23.14941
G1 X82.524 Y48.568 E23.15762
G1 X82.368 Y48.679 E23.16718
G1 X80.389 Y49.652 E23.2772
G1 X80.124 Y49.713 E23.29076
G1 X79.859 Y49.652 E23.30433
G1 X77.881 Y48.679 E23.41431
G1 X77.725 Y48.568 E23.42386
G1 X77.655 Y48.419 E23.43207
G1 X77.585 Y48.568 E23.44028
G1 X77.429 Y48.679 E23.44984
G1 X75.45 Y49.652 E23.55986
G1 X75.185 Y49.713 E23.57342
G1 X74.92 Y49.652 E23.58699
G1 X72.941 Y48.679 E23.69701
G1 X72.712 Y48.482 E23.71208
G1 X72.606 Y48.212 E23.72655
G1 X72.606 Y46.194 E23.82723
G1 X72.89 Y45.737 E23.85408
G1 X70.966 Y44.791 E23.96104
G1 F965.8 X70.543 Y44.372 E23.99795
G1 F813.6 X70.538 Y42.305 E24.15005
G1 F973.6 X70.736 Y41.964 E24.1743
M205 X8.18 Y8.18
G0 F1800 X70.571 Y41.627
G0 X70.158 Y44.423
G0 X69.955 Y44.423
M205 X3 Y3
G1 F965.8 X69.858 Y44.866 E24.20241
G1 F1200 X69.858 Y50.942 E24.50554
G1 X109.158 Y50.942 E26.46623
G1 X109.158 Y34.642 E27.27944
G1 X69.858 Y34.642 E29.24012
G1 X69.858 Y41.691 E29.5918
G1 F973.6 X69.952 Y42.305 E29.63
G1 F813.6 X69.955 Y44.423 E29.78586
M205 X8.18 Y8.18
G0 F1800 X70.158 Y44.423
G0 X70.398 Y41.786
G0 X71.076 Y42.157
M205 X3 Y3
;TYPE:WALL-OUTER
G1 F1194 X73.12 Y41.151 E29.90008
G1 F1142.9 X73.271 Y41.121 E29.90815
G1 F1118.9 X75.211 Y42.073 E30.02377
G1 X75.386 Y42.211 E30.0357
G1 F1034.5 X75.433 Y42.305 E30.04178
G1 F975.6 X75.433 Y44.274 E30.16261
G1 F1019.1 X75.391 Y44.348 E30.16761
G1 F1088.4 X74.898 Y44.636 E30.19901
G1 F1106 X73.305 Y45.419 E30.2951
G1 F1151.1 X73.118 Y45.403 E30.30486
G1 F1200 X71.142 Y44.432 E30.4147
G1 X71.033 Y44.287 E30.42375
G1 X71.031 Y42.305 E30.52263
G1 X71.076 Y42.157 E30.53035
M205 X8.18 Y8.18
G0 F1800 X71.255 Y42.069
G0 X70.947 Y41.442
G0 X70.398 Y44.771
G0 X72.306 Y45.987
G0 X73.134 Y45.987
M205 X3 Y3
G1 F1129.4 X75.089 Y45.026 E30.64583
G1 F1151.1 X75.274 Y45.041 E30.65548
G1 F1200 X77.252 Y46.014 E30.76546
G1 F1145.6 X77.362 Y46.1 E30.77275
G1 F1034.5 X77.409 Y46.194 E30.77883
G1 F975.6 X77.409 Y48.162 E30.8996
G1 F1076.2 X77.287 Y48.303 E30.90997
G1 F1200 X75.274 Y49.293 E31.02189
G1 X75.096 Y49.293 E31.03077
G1 X73.117 Y48.32 E31.14079
G1 X73.008 Y48.175 E31.14984
G1 X73.006 Y46.194 E31.24867
G1 F1176.5 X73.134 Y45.987 E31.26106
M205 X8.18 Y8.18
G0 F1800 X73.313 Y45.899
G0 X73.189 Y45.646
G0 X75.67 Y44.274
G0 X75.924 Y44.274
M205 X3 Y3
G1 F975.6 X75.925 Y42.305 E31.38189
G1 F1078.7 X76.052 Y42.143 E31.39331
G1 F1200 X78.094 Y41.136 E31.5069
G1 X78.204 Y41.136 E31.51239
G1 X80.215 Y42.125 E31.62419
G1 F1145.6 X80.325 Y42.211 E31.63149
G1 F1032.3 X80.372 Y42.305 E31.63759
G1 F975.6 X80.372 Y44.274 E31.75841
G1 F1019.1 X80.329 Y44.347 E31.76339
G1 F1108.5 X80.133 Y44.49 E31.77649
G1 F1129.4 X78.244 Y45.419 E31.88808
G1 F1151.1 X78.058 Y45.404 E31.89779
G1 F1200 X76.081 Y44.432 E32.0077
G1 F1076.2 X75.924 Y44.274 E32.02009
M205 X8.18 Y8.18
G0 F1800 X75.924 Y44.074
G0 X75.67 Y44.074
G0 X77.596 Y45.924
G0 X77.654 Y48.89
G0 X77.9 Y48.162
M205 X3 Y3
G1 F975.6 X77.901 Y46.194 E32.14085
G1 F1034.5 X77.947 Y46.1 E32.14691
G1 F1124.1 X78.128 Y45.96 E32.1591
G1 F1129.4 X80.028 Y45.026 E32.27132
G1 F1151.1 X80.213 Y45.041 E32.28098
G1 F1200 X82.191 Y46.014 E32.39095
G1 F1145.6 X82.301 Y46.1 E32.39825
G1 F1034.5 X82.348 Y46.194 E32.40433
G1 F975.6 X82.348 Y48.162 E32.5251
G1 F1076.2 X82.226 Y48.303 E32.53547
G1 F1200 X80.213 Y49.293 E32.64739
G1 X80.035 Y49.293 E32.65627
G1 X78.022 Y48.303 E32.76819
G1 F1076.2 X77.9 Y48.162 E32.77856
M205 X8.18 Y8.18
G0 F1800 X77.9 Y47.962
G0 X77.646 Y47.962
G0 X80.124 Y49.6
G0 X82.593 Y48.89
G0 X82.839 Y48.162
M205 X3 Y3
G1 F975.6 X82.84 Y46.194 E32.89932
G1 F1034.5 X82.886 Y46.1 E32.90538
G1 F1124.1 X83.067 Y45.96 E32.91757
G1 F1129.4 X84.967 Y45.026 E33.02979
G1 F1151.1 X85.152 Y45.041 E33.03945
G1 F1200 X87.131 Y46.014 E33.14947
G1 F1145.6 X87.241 Y46.1 E33.15676
G1 F1034.5 X87.287 Y46.194 E33.16282
G1 F977.6 X87.288 Y48.161 E33.28328
G1 F1076.2 X87.166 Y48.303 E33.2937
G1 F1200 X85.152 Y49.293 E33.40566
G1 X84.974 Y49.293 E33.41454
G1 X82.961 Y48.303 E33.52645
G1 F1076.2 X82.839 Y48.162 E33.53683
M205 X8.18 Y8.18
G0 F1800 X82.839 Y47.962
G0 X82.585 Y47.962
G0 X82.652 Y45.924
G0 X85.499 Y44.522
G0 X85.803 Y44.274
M205 X3 Y3
G1 F975.6 X85.804 Y42.305 E33.65765
G1 F1034.5 X85.85 Y42.211 E33.66371
G1 F1124.1 X86.03 Y42.071 E33.67586
G1 F1129.4 X87.93 Y41.137 E33.78808
G1 F1151.1 X88.115 Y41.152 E33.79774
G1 F1200 X90.094 Y42.125 E33.90776
G1 F1145.6 X90.204 Y42.211 E33.91505
G1 F1034.5 X90.251 Y42.305 E33.92114
G1 F975.6 X90.251 Y44.274 E34.04196
G1 F1019.1 X90.209 Y44.348 E34.04696
G1 F1108.5 X90.009 Y44.491 E34.06024
G1 F1129.4 X88.122 Y45.419 E34.17171
G1 F1151.1 X87.936 Y45.404 E34.18141
G1 F1200 X85.96 Y44.432 E34.29128
G1 F1076.2 X85.803 Y44.274 E34.30367
M205 X8.18 Y8.18
G0 F1800 X85.803 Y44.074
G0 X85.549 Y44.074
G0 X87.475 Y45.924
G0 X87.533 Y48.89
G0 X87.778 Y48.161
M205 X3 Y3
G1 F977.6 X87.779 Y46.194 E34.42413
G1 F1034.5 X87.825 Y46.1 E34.43018
G1 F1124.1 X88.006 Y45.96 E34.44237
G1 F1129.4 X89.906 Y45.026 E34.5546
G1 F1151.1 X90.091 Y45.041 E34.56425
G1 F1200 X92.07 Y46.014 E34.67427
G1 F1145.6 X92.18 Y46.1 E34.68157
G1 F1034.5 X92.226 Y46.194 E34.68763
G1 F977.6 X92.227 Y48.161 E34.80809
G1 F1076.2 X92.105 Y48.303 E34.8185
G1 F1200 X90.091 Y49.293 E34.93046
G1 X89.913 Y49.293 E34.93934
G1 X87.9 Y48.303 E35.05126
G1 F1076.2 X87.778 Y48.161 E35.06167
M205 X8.18 Y8.18
G0 F1800 X87.778 Y47.961
G0 X87.524 Y47.961
G0 X87.591 Y45.924
G0 X90.438 Y44.522
G0 X90.742 Y44.274
M205 X3 Y3
G1 F975.6 X90.743 Y42.305 E35.1825
G1 F1034.5 X90.789 Y42.211 E35.18856
G1 F1124.1 X90.969 Y42.071 E35.2007
G1 F1129.4 X92.869 Y41.137 E35.31293
G1 F1151.1 X93.054 Y41.152 E35.32258
G1 F1200 X95.033 Y42.125 E35.4326
G1 F1145.6 X95.143 Y42.211 E35.4399
G1 F1034.5 X95.19 Y42.305 E35.44598
G1 F975.6 X95.19 Y44.274 E35.56681
G1 F1019.1 X95.148 Y44.348 E35.57181
G1 F1108.5 X94.948 Y44.491 E35.58509
G1 F1129.4 X93.061 Y45.419 E35.69656
G1 F1151.1 X92.875 Y45.404 E35.70626
G1 F1200 X90.899 Y44.432 E35.81613
G1 F1076.2 X90.742 Y44.274 E35.82852
M205 X8.18 Y8.18
G0 F1800 X90.742 Y44.074
G0 X90.488 Y44.074
G0 X92.414 Y45.924
G0 X92.472 Y48.89
G0 X92.717 Y48.161
M205 X3 Y3
G1 F977.6 X92.718 Y46.194 E35.94898
G1 F1034.5 X92.764 Y46.1 E35.95503
G1 F1124.1 X92.945 Y45.96 E35.96722
G1 F1129.4 X94.845 Y45.026 E36.07945
G1 F1151.1 X95.03 Y45.041 E36.0891
G1 F1200 X97.009 Y46.014 E36.19912
G1 X97.117 Y46.124 E36.20681
G1 X97.12 Y48.158 E36.30829
G1 X97.067 Y48.29 E36.31538
G1 X95.03 Y49.293 E36.42866
G1 X94.852 Y49.293 E36.43754
G1 X92.839 Y48.303 E36.54946
G1 F1076.2 X92.717 Y48.161 E36.55987
M205 X8.18 Y8.18
G0 F1800 X92.717 Y47.961
G0 X92.463 Y47.961
G0 X92.53 Y45.924
G0 X95.377 Y44.522
G0 X95.681 Y44.274
M205 X3 Y3
G1 F975.6 X95.682 Y42.305 E36.6807
G1 F1034.5 X95.728 Y42.211 E36.68676
G1 F1124.1 X95.908 Y42.071 E36.6989
G1 F1129.4 X97.808 Y41.137 E36.81113
G1 F1151.1 X97.993 Y41.152 E36.82078
G1 F1200 X99.972 Y42.125 E36.9308
G1 F1145.6 X100.082 Y42.211 E36.9381
G1 F1034.5 X100.129 Y42.305 E36.94418
G1 F975.6 X100.129 Y44.274 E37.06501
G1 F1076.2 X99.972 Y44.432 E37.0774
G1 F1200 X97.945 Y45.421 E37.18992
G1 X97.847 Y45.42 E37.19481
G1 X95.838 Y44.432 E37.30651
G1 F1076.2 X95.681 Y44.274 E37.3189
M205 X8.18 Y8.18
G0 F1800 X95.681 Y44.074
G0 X95.427 Y44.074
G0 X98.027 Y46.111
G0 X98.772 Y46.032
M205 X3 Y3
G1 F1197 X100.779 Y45.04 E37.43087
G1 F1142.9 X100.93 Y45.01 E37.43894
G1 F1118.9 X102.918 Y45.985 E37.55741
G1 F1170.7 X103.046 Y46.194 E37.56994
G1 F1200 X103.046 Y48.182 E37.66913
G1 X102.935 Y48.32 E37.67796
G1 X100.957 Y49.293 E37.78794
G1 X100.779 Y49.293 E37.79682
G1 X98.743 Y48.29 E37.91005
G1 X98.69 Y48.158 E37.91715
G1 X98.69 Y46.194 E38.01513
G1 X98.772 Y46.032 E38.02419
M205 X8.18 Y8.18
G0 F1800 X98.951 Y45.944
G0 X98.818 Y45.673
G0 X100.316 Y44.522
G0 X100.663 Y44.348
M205 X3 Y3
G1 F1019.1 X100.62 Y44.274 E38.02922
G1 F975.6 X100.621 Y42.305 E38.15005
G1 F1034.5 X100.667 Y42.211 E38.1561
G1 F1124.1 X100.847 Y42.071 E38.16825
G1 F1129.4 X102.747 Y41.137 E38.28048
G1 F1151.1 X102.932 Y41.152 E38.29013
G1 F1200 X104.941 Y42.14 E38.40182
G1 X105.022 Y42.257 E38.40892
