;FLAVOR:Marlin
;TIME:784
;Filament used: 0.421642m
;Layer height: 0.2
;MINX:111.15
;MINY:90.15
;MINZ:0.3
;MAXX:158.85
;MAXY:114.85
;MAXZ:2.1
;Generated with Cura_SteamEngine 5.2.2
M140 S60
M105
M190 S60
M104 S190
M105
M109 S190
M82 ;absolute extrusion mode
G21 ;metric values
G90 ;absolute positioning
M82 ;set extruder to absolute mode
M107 ;start with the fan off
G28 X0 Y0 ;move X/Y to min endstops
G28 Z0 ;move Z to min endstops
;nozzle brush start
G1 X-3 Y40
G1 X-3 Y5
G1 X-3 Y40
G1 X-3 Y5
G1 Z15.0 F60 ;move the platform down 15mm
G92 E0 ;zero the extruded length
G1 F200 E3 ;extrude 3mm of feed stock
G92 E0 ;zero the extruded length again
G1 F60
M117 Printing...
G5
G92 E0
G92 E0
G1 F1500 E-6.5
;LAYER_COUNT:10
;LAYER:0
M107
M204 S300
M205 X8.18 Y8.18
G0 F1800 X112.147 Y91.281 Z0.3
M205 X3 Y3
;TYPE:SKIRT
G1 F1500 E0
G1 F1200 X112.544 Y90.921 E0.02674
G1 X112.991 Y90.623 E0.05354
G1 X113.476 Y90.395 E0.08028
G1 X113.99 Y90.242 E0.10703
G1 X114.731 Y90.151 E0.14428
G1 X154.595 Y90.15 E2.1331
G1 X155.293 Y90.16 E2.16793
G1 X155.827 Y90.208 E2.19468
G1 X156.348 Y90.334 E2.22142
G1 X156.845 Y90.537 E2.2482
G1 X157.306 Y90.811 E2.27496
G1 X157.721 Y91.15 E2.30169
G1 X158.081 Y91.548 E2.32847
G1 X158.378 Y91.994 E2.3552
G1 X158.606 Y92.48 E2.38198
G1 X158.758 Y92.994 E2.40872
G1 X158.849 Y93.732 E2.44582
G1 X158.85 Y110.559 E3.28532
G1 X158.841 Y111.286 E3.3216
G1 X158.794 Y111.82 E3.34834
G1 X158.669 Y112.341 E3.37507
G1 X158.467 Y112.838 E3.40184
G1 X158.194 Y113.3 E3.42861
G1 X157.856 Y113.716 E3.45535
G1 X157.459 Y114.077 E3.48212
G1 X157.013 Y114.375 E3.50888
G1 X156.528 Y114.603 E3.53562
G1 X156.014 Y114.757 E3.56239
G1 X155.269 Y114.849 E3.59984
G1 X115.411 Y114.85 E5.58836
G1 X114.713 Y114.841 E5.62319
G1 X114.178 Y114.794 E5.64998
G1 X113.657 Y114.668 E5.67673
G1 X113.16 Y114.466 E5.70349
G1 X112.699 Y114.193 E5.73022
G1 X112.283 Y113.854 E5.75699
G1 X111.922 Y113.458 E5.78373
G1 X111.624 Y113.012 E5.81049
G1 X111.396 Y112.526 E5.83727
G1 X111.243 Y112.012 E5.86403
G1 X111.151 Y111.265 E5.90158
G1 X111.15 Y94.375 E6.74422
G1 X111.159 Y93.71 E6.7774
G1 X111.207 Y93.176 E6.80415
G1 X111.333 Y92.655 E6.83089
G1 X111.535 Y92.158 E6.85766
G1 X111.808 Y91.697 E6.88439
G1 X112.147 Y91.281 E6.91116
M205 X8.18 Y8.18
G0 F1800 X112.539 Y91.454
M205 X3 Y3
G1 F1200 X112.93 Y91.133 E6.9364
G1 X113.367 Y90.878 E6.96164
G1 X113.838 Y90.694 E6.98687
G1 X114.332 Y90.588 E7.01208
G1 X114.777 Y90.551 E7.03435
G1 X154.589 Y90.55 E9.02058
G1 X155.287 Y90.56 E9.05541
G1 X155.79 Y90.607 E9.08061
G1 X156.28 Y90.733 E9.10585
G1 X156.744 Y90.935 E9.1311
G1 X157.17 Y91.207 E9.15632
G1 X157.548 Y91.542 E9.18152
G1 X157.868 Y91.933 E9.20672
G1 X158.123 Y92.37 E9.23197
G1 X158.306 Y92.841 E9.25718
G1 X158.413 Y93.335 E9.28239
G1 X158.449 Y93.99 E9.31512
G1 X158.45 Y110.554 E10.1415
G1 X158.441 Y111.281 E10.17777
G1 X158.395 Y111.784 E10.20297
G1 X158.27 Y112.274 E10.2282
G1 X158.069 Y112.738 E10.25343
G1 X157.798 Y113.165 E10.27866
G1 X157.463 Y113.544 E10.3039
G1 X157.073 Y113.865 E10.3291
G1 X156.637 Y114.121 E10.35432
G1 X156.166 Y114.304 E10.37953
G1 X155.672 Y114.412 E10.40476
G1 X155.01 Y114.449 E10.43784
G1 X115.416 Y114.45 E12.41319
G1 X114.718 Y114.441 E12.44802
G1 X114.214 Y114.394 E12.47327
G1 X113.724 Y114.269 E12.4985
G1 X113.26 Y114.068 E12.52373
G1 X112.834 Y113.797 E12.54892
G1 X112.455 Y113.462 E12.57415
G1 X112.134 Y113.071 E12.59939
G1 X111.879 Y112.635 E12.62459
G1 X111.695 Y112.164 E12.64982
G1 X111.588 Y111.67 E12.67504
G1 X111.551 Y111.217 E12.69771
G1 X111.55 Y94.381 E13.53766
G1 X111.559 Y93.716 E13.57084
G1 X111.606 Y93.212 E13.5961
G1 X111.732 Y92.723 E13.62129
G1 X111.933 Y92.259 E13.64652
G1 X112.204 Y91.832 E13.67175
G1 X112.539 Y91.454 E13.69695
M205 X8.18 Y8.18
G1 F1500 E7.19695
;MESH:lid_temp_sensor.stl
G0 F1800 X115.164 Y93.085
G0 X115.164 Y94.164
G0 X116.063 Y101.335
G1 F1500 E13.69695
G0 F1800 X116.228 Y101.672
M205 X3 Y3
;TYPE:WALL-INNER
G1 F1200 X116.458 Y101.474 E13.71209
G1 X118.383 Y100.526 E13.81914
G1 X118.098 Y100.07 E13.84597
G1 X118.098 Y98.124 E13.94306
G1 X118.165 Y97.847 E13.95728
G1 X118.349 Y97.627 E13.97158
G1 X120.52 Y96.559 E14.09229
G1 X120.836 Y96.559 E14.10806
G1 X123.05 Y97.655 E14.23131
G1 F973.6 X123.347 Y98.124 E14.26544
G1 F819.1 X123.347 Y100.17 E14.41498
G1 F826.2 X123.278 Y100.365 E14.42997
G1 F877.5 X123.043 Y100.603 E14.45279
G1 F869.6 X123.499 Y100.361 E14.48833
G1 F819.1 X123.781 Y100.361 E14.50894
G1 X123.946 Y100.418 E14.5217
G1 F880.7 X124.338 Y100.656 E14.55288
G1 X123.999 Y100.366 E14.5832
G1 F819.1 X123.933 Y100.168 E14.59846
G1 X123.933 Y98.124 E14.74785
G1 F973.6 X124.23 Y97.654 E14.78204
G1 F1200 X126.446 Y96.559 E14.90535
G1 X126.762 Y96.559 E14.92112
G1 X128.846 Y97.585 E15.03701
G1 X129.003 Y97.696 E15.0466
G1 X129.073 Y97.865 E15.05573
G1 X129.143 Y97.696 E15.06485
G1 X129.3 Y97.585 E15.07445
G1 X131.386 Y96.559 E15.19042
G1 X131.701 Y96.559 E15.20614
G1 X133.785 Y97.585 E15.32203
G1 X133.942 Y97.696 E15.33162
G1 X134.012 Y97.865 E15.34075
G1 X134.082 Y97.696 E15.34987
G1 X134.239 Y97.585 E15.35947
G1 X136.325 Y96.559 E15.47544
G1 X136.639 Y96.559 E15.49111
G1 X138.726 Y97.585 E15.60713
G1 X138.882 Y97.695 E15.61665
G1 X138.952 Y97.863 E15.62573
G1 X139.022 Y97.695 E15.63481
G1 X139.178 Y97.585 E15.64434
G1 X141.264 Y96.559 E15.76032
G1 X141.578 Y96.559 E15.77598
G1 X143.665 Y97.585 E15.892
G1 X143.821 Y97.695 E15.90153
G1 X143.891 Y97.863 E15.91061
G1 X143.961 Y97.695 E15.91969
G1 X144.117 Y97.585 E15.92921
G1 X146.203 Y96.559 E16.04519
G1 X146.517 Y96.559 E16.06085
G1 X148.603 Y97.585 E16.17683
G1 X148.763 Y97.699 E16.18663
G1 X148.938 Y98.022 E16.20496
G1 X148.938 Y100.07 E16.30714
G1 X148.653 Y100.526 E16.33396
G1 X150.67 Y101.519 E16.44613
G1 X150.809 Y101.672 E16.45644
G1 X150.886 Y101.83 E16.46521
G1 X150.914 Y102.013 E16.47444
G1 X150.914 Y104.031 E16.57512
G1 X150.809 Y104.3 E16.58953
G1 X150.67 Y104.453 E16.59984
G1 X148.654 Y105.445 E16.71194
G1 X148.938 Y105.902 E16.73878
G1 X148.938 Y107.972 E16.84205
G1 X148.812 Y108.218 E16.85584
G1 X148.603 Y108.387 E16.86925
G1 X146.625 Y109.359 E16.97921
G1 X146.36 Y109.42 E16.99277
G1 X146.095 Y109.359 E17.00634
G1 X144.061 Y108.356 E17.11948
G1 X143.911 Y108.221 E17.12955
G1 F971.7 X143.69 Y107.909 E17.15311
G1 F817.7 X143.69 Y105.802 E17.30737
G1 F826.2 X143.759 Y105.608 E17.32229
G1 F875.9 X143.993 Y105.368 E17.3452
G1 F869.6 X143.537 Y105.609 E17.38071
G1 F820.5 X143.256 Y105.609 E17.40122
G1 X143.09 Y105.553 E17.414
G1 F882.4 X142.7 Y105.316 E17.44496
G1 X143.037 Y105.605 E17.47509
G1 F820.5 X143.104 Y105.807 E17.49061
G1 F817.7 X143.104 Y107.909 E17.64451
G1 F971.7 X142.883 Y108.221 E17.66807
G1 F1200 X142.733 Y108.356 E17.67814
G1 X140.698 Y109.359 E17.79132
G1 X140.433 Y109.42 E17.80489
G1 X140.168 Y109.359 E17.81846
G1 X138.19 Y108.387 E17.92841
G1 X138.034 Y108.277 E17.93793
G1 X137.964 Y108.128 E17.94615
G1 X137.894 Y108.277 E17.95436
G1 X137.737 Y108.387 E17.96393
G1 X135.759 Y109.359 E18.07388
G1 X135.494 Y109.42 E18.08745
G1 X135.229 Y109.359 E18.10101
G1 X133.251 Y108.387 E18.21097
G1 X133.095 Y108.277 E18.22049
G1 X133.025 Y108.128 E18.2287
G1 X132.955 Y108.277 E18.23692
G1 X132.798 Y108.387 E18.24648
G1 X130.82 Y109.359 E18.35643
G1 X130.555 Y109.42 E18.37
G1 X130.29 Y109.359 E18.38357
G1 X128.312 Y108.387 E18.49352
G1 X128.155 Y108.276 E18.50311
G1 X128.085 Y108.127 E18.51133
G1 X128.015 Y108.276 E18.51954
G1 X127.858 Y108.387 E18.52913
G1 X125.881 Y109.359 E18.63904
G1 X125.616 Y109.42 E18.65261
G1 X125.351 Y109.359 E18.66618
G1 X123.373 Y108.387 E18.77613
G1 X123.216 Y108.276 E18.78572
G1 X123.146 Y108.127 E18.79394
G1 X123.076 Y108.276 E18.80215
G1 X122.919 Y108.387 E18.81174
G1 X120.942 Y109.359 E18.92165
G1 X120.677 Y109.42 E18.93522
G1 X120.412 Y109.359 E18.94878
G1 X118.433 Y108.387 E19.05878
G1 X118.204 Y108.19 E19.07385
G1 X118.098 Y107.92 E19.08832
G1 X118.098 Y105.902 E19.189
G1 X118.382 Y105.445 E19.21585
G1 X116.458 Y104.498 E19.32283
G1 F965.8 X116.035 Y104.079 E19.35974
G1 F813.6 X116.03 Y102.013 E19.51177
G1 F973.6 X116.228 Y101.672 E19.53602
M205 X8.18 Y8.18
G0 F1800 X116.063 Y101.335
G0 X115.65 Y104.13
G0 X115.447 Y104.13
M205 X3 Y3
G1 F965.8 X115.35 Y104.573 E19.56413
G1 F1200 X115.35 Y110.65 E19.86731
G1 X154.65 Y110.65 E21.828
G1 X154.65 Y94.35 E22.64121
G1 X115.35 Y94.35 E24.60189
G1 X115.35 Y101.399 E24.95357
G1 F973.6 X115.444 Y102.013 E24.99176
G1 F813.6 X115.447 Y104.13 E25.14755
M205 X8.18 Y8.18
G0 F1800 X115.65 Y104.13
G0 X115.89 Y101.494
G0 X116.568 Y101.865
M205 X3 Y3
;TYPE:WALL-OUTER
G1 F1194 X118.612 Y100.859 E25.26178
G1 F1140.1 X118.763 Y100.829 E25.26986
G1 F1118.9 X120.703 Y101.781 E25.38549
G1 X120.878 Y101.919 E25.39741
G1 F1034.5 X120.925 Y102.013 E25.4035
G1 F975.6 X120.925 Y103.981 E25.52426
G1 F1019.1 X120.883 Y104.055 E25.52926
G1 F1088.4 X120.389 Y104.344 E25.56074
G1 F1106 X118.797 Y105.126 E25.65675
G1 F1151.1 X118.61 Y105.11 E25.66651
G1 F1200 X116.634 Y104.139 E25.77636
G1 X116.525 Y103.994 E25.78541
G1 X116.523 Y102.013 E25.88424
G1 X116.568 Y101.865 E25.89196
M205 X8.18 Y8.18
G0 F1800 X116.747 Y101.777
G0 X116.439 Y101.15
G0 X115.89 Y104.478
G0 X117.798 Y105.693
G0 X118.627 Y105.693
M205 X3 Y3
G1 F1129.4 X120.581 Y104.734 E26.00734
G1 F1151.1 X120.766 Y104.749 E26.01699
G1 F1200 X122.743 Y105.722 E26.12692
G1 F1145.6 X122.853 Y105.808 E26.13422
G1 F1032.3 X122.9 Y105.902 E26.14031
G1 F975.6 X122.9 Y107.87 E26.26108
G1 F1076.2 X122.778 Y108.011 E26.27145
G1 F1200 X120.766 Y109 E26.3833
G1 X120.588 Y109 E26.39218
G1 X118.609 Y108.028 E26.50218
G1 X118.5 Y107.883 E26.51123
G1 X118.498 Y105.902 E26.61007
G1 F1176.5 X118.627 Y105.693 E26.62256
M205 X8.18 Y8.18
G0 F1800 X118.806 Y105.605
G0 X118.682 Y105.353
G0 X121.162 Y103.981
G0 X121.416 Y103.981
M205 X3 Y3
G1 F975.6 X121.417 Y102.013 E26.74333
G1 F1078.7 X121.543 Y101.851 E26.75472
G1 F1200 X123.586 Y100.844 E26.86836
G1 X123.696 Y100.844 E26.87384
G1 X125.707 Y101.833 E26.98565
G1 F1145.6 X125.817 Y101.919 E26.99295
G1 F1032.3 X125.864 Y102.013 E26.99904
G1 F975.6 X125.864 Y103.981 E27.11981
G1 F1019.1 X125.821 Y104.054 E27.12478
G1 F1108.5 X125.624 Y104.199 E27.138
G1 F1126.8 X123.736 Y105.127 E27.24977
G1 F1151.1 X123.55 Y105.111 E27.25948
G1 F1200 X121.573 Y104.139 E27.36939
G1 F1076.2 X121.416 Y103.981 E27.38178
M205 X8.18 Y8.18
G0 F1800 X121.416 Y103.781
G0 X121.162 Y103.781
G0 X123.087 Y105.632
G0 X123.439 Y105.808
M205 X3 Y3
G1 F1124.1 X123.62 Y105.668 E27.39397
G1 F1129.4 X125.52 Y104.734 E27.5062
G1 F1151.1 X125.705 Y104.749 E27.51585
G1 F1200 X127.682 Y105.722 E27.62578
G1 F1145.6 X127.792 Y105.808 E27.63308
G1 F1032.3 X127.839 Y105.902 E27.63917
G1 F975.6 X127.839 Y107.87 E27.75994
G1 F1076.2 X127.717 Y108.011 E27.77031
G1 F1200 X125.705 Y109 E27.88216
G1 X125.527 Y109 E27.89104
G1 X123.514 Y108.011 E28.00294
G1 F1076.2 X123.392 Y107.87 E28.01331
G1 F975.6 X123.392 Y105.902 E28.13408
G1 F1032.3 X123.439 Y105.808 E28.14017
M205 X8.18 Y8.18
G0 F1800 X123.597 Y105.686
G0 X123.47 Y105.428
G0 X126.051 Y104.229
G0 X126.102 Y101.919
G0 X126.403 Y101.919
M205 X3 Y3
G1 F1124.1 X126.583 Y101.779 E28.15232
G1 F1129.4 X128.483 Y100.845 E28.26454
G1 F1151.1 X128.668 Y100.86 E28.2742
G1 F1200 X130.647 Y101.833 E28.38422
G1 F1145.6 X130.757 Y101.919 E28.39151
G1 F1034.5 X130.804 Y102.013 E28.3976
G1 F975.6 X130.804 Y103.981 E28.51836
G1 F1019.1 X130.762 Y104.055 E28.52336
G1 F1088.4 X130.268 Y104.344 E28.55484
G1 F1106 X128.675 Y105.127 E28.65093
G1 F1151.1 X128.489 Y105.111 E28.66064
G1 F1200 X126.513 Y104.139 E28.7705
G1 F1076.2 X126.356 Y103.981 E28.78289
G1 F975.6 X126.356 Y102.013 E28.90366
G1 F1032.3 X126.403 Y101.919 E28.90975
M205 X8.18 Y8.18
G0 F1800 X126.56 Y101.797
G0 X126.434 Y101.539
G0 X126.169 Y104.229
G0 X127.609 Y104.93
G0 X128.077 Y105.808
G0 X128.378 Y105.808
M205 X3 Y3
G1 F1124.1 X128.559 Y105.668 E28.92194
G1 F1129.4 X130.459 Y104.734 E29.03417
G1 F1151.1 X130.645 Y104.75 E29.04388
G1 F1200 X132.622 Y105.722 E29.15378
G1 F1145.6 X132.732 Y105.808 E29.16108
G1 F1034.5 X132.779 Y105.902 E29.16716
G1 F975.6 X132.779 Y107.87 E29.28793
G1 F1076.2 X132.657 Y108.011 E29.2983
G1 F1200 X130.644 Y109 E29.4102
G1 X130.466 Y109 E29.41908
G1 X128.453 Y108.011 E29.53097
G1 F1076.2 X128.331 Y107.87 E29.54134
G1 F975.6 X128.331 Y105.902 E29.66211
G1 F1032.3 X128.378 Y105.808 E29.66821
M205 X8.18 Y8.18
G0 F1800 X128.536 Y105.686
G0 X128.409 Y105.428
G0 X130.991 Y104.229
G0 X131.295 Y103.981
M205 X3 Y3
G1 F975.6 X131.296 Y102.013 E29.78897
G1 F1034.5 X131.342 Y101.919 E29.79503
G1 F1124.1 X131.522 Y101.779 E29.80717
G1 F1129.4 X133.422 Y100.845 E29.9194
G1 F1151.1 X133.607 Y100.86 E29.92905
G1 F1200 X135.586 Y101.833 E30.03908
G1 F1145.6 X135.696 Y101.919 E30.04637
G1 F1034.5 X135.743 Y102.013 E30.05245
G1 F975.6 X135.743 Y103.981 E30.17322
G1 F1019.1 X135.701 Y104.055 E30.17822
G1 F1088.4 X135.207 Y104.344 E30.2097
G1 F1106 X133.614 Y105.127 E30.30578
G1 F1151.1 X133.428 Y105.111 E30.31549
G1 F1200 X131.452 Y104.139 E30.42536
G1 F1076.2 X131.295 Y103.981 E30.43775
M205 X8.18 Y8.18
G0 F1800 X131.295 Y103.781
G0 X131.041 Y103.781
G0 X132.966 Y105.632
G0 X133.025 Y108.598
G0 X133.27 Y107.87
M205 X3 Y3
G1 F975.6 X133.271 Y105.902 E30.55851
G1 F1034.5 X133.317 Y105.808 E30.56457
G1 F1124.1 X133.498 Y105.668 E30.57676
G1 F1129.4 X135.398 Y104.734 E30.68898
G1 F1151.1 X135.584 Y104.75 E30.69869
G1 F1200 X137.561 Y105.722 E30.8086
G1 F1145.6 X137.671 Y105.808 E30.8159
G1 F1034.5 X137.718 Y105.902 E30.82198
G1 F975.6 X137.718 Y107.87 E30.94275
G1 F1076.2 X137.596 Y108.011 E30.95312
G1 F1200 X135.583 Y109 E31.06502
G1 X135.405 Y109 E31.0739
G1 X133.392 Y108.011 E31.18579
G1 F1076.2 X133.27 Y107.87 E31.19616
M205 X8.18 Y8.18
G0 F1800 X133.27 Y107.67
G0 X133.016 Y107.67
G0 X133.083 Y105.632
G0 X135.93 Y104.229
G0 X136.234 Y103.981
M205 X3 Y3
G1 F975.6 X136.235 Y102.013 E31.31693
G1 F1034.5 X136.281 Y101.919 E31.32299
G1 F1124.1 X136.461 Y101.779 E31.33513
G1 F1129.4 X138.361 Y100.845 E31.44736
G1 F1151.1 X138.547 Y100.861 E31.45707
G1 F1200 X140.525 Y101.833 E31.56702
G1 F1145.6 X140.635 Y101.919 E31.57432
G1 F1034.5 X140.682 Y102.013 E31.5804
G1 F975.6 X140.682 Y103.981 E31.70117
G1 F1019.1 X140.64 Y104.055 E31.70617
G1 F1088.4 X140.146 Y104.344 E31.73765
G1 F1106 X138.553 Y105.127 E31.83373
G1 F1151.1 X138.367 Y105.111 E31.84344
G1 F1200 X136.391 Y104.139 E31.9533
G1 F1076.2 X136.234 Y103.981 E31.96569
M205 X8.18 Y8.18
G0 F1800 X136.234 Y103.781
G0 X135.98 Y103.781
G0 X137.905 Y105.632
G0 X137.964 Y108.598
G0 X138.209 Y107.87
M205 X3 Y3
G1 F975.6 X138.21 Y105.902 E32.08646
G1 F1034.5 X138.256 Y105.808 E32.09252
G1 F1124.1 X138.437 Y105.668 E32.1047
G1 F1129.4 X140.337 Y104.734 E32.21693
G1 F1151.1 X140.523 Y104.75 E32.22664
G1 F1200 X142.501 Y105.722 E32.33659
G1 X142.609 Y105.832 E32.34429
G1 X142.612 Y107.866 E32.44576
G1 X142.559 Y107.998 E32.45286
G1 X140.522 Y109 E32.56611
G1 X140.344 Y109 E32.575
G1 X138.331 Y108.011 E32.68689
G1 F1076.2 X138.209 Y107.87 E32.69726
M205 X8.18 Y8.18
G0 F1800 X138.209 Y107.67
G0 X137.955 Y107.67
G0 X138.022 Y105.632
G0 X140.869 Y104.229
G0 X141.173 Y103.981
M205 X3 Y3
G1 F975.6 X141.174 Y102.013 E32.81803
G1 F1034.5 X141.22 Y101.919 E32.82409
G1 F1124.1 X141.4 Y101.779 E32.83623
G1 F1129.4 X143.3 Y100.845 E32.94846
G1 F1151.1 X143.486 Y100.861 E32.95817
G1 F1200 X145.464 Y101.833 E33.06812
G1 F1145.6 X145.574 Y101.919 E33.07542
G1 F1034.5 X145.621 Y102.013 E33.0815
G1 F975.6 X145.621 Y103.981 E33.20227
G1 F1076.2 X145.494 Y104.121 E33.21278
G1 F1200 X143.449 Y105.127 E33.32648
G1 X143.34 Y105.127 E33.33192
G1 X141.33 Y104.139 E33.44366
G1 F1076.2 X141.173 Y103.981 E33.45605
M205 X8.18 Y8.18
G0 F1800 X141.173 Y103.781
G0 X140.919 Y103.781
G0 X143.519 Y105.818
G0 X144.264 Y105.74
M205 X3 Y3
G1 F1197 X146.271 Y104.748 E33.56802
G1 F1140.1 X146.422 Y104.718 E33.57611
G1 F1118.9 X148.409 Y105.692 E33.69451
G1 F1170.7 X148.538 Y105.902 E33.70711
G1 F1200 X148.538 Y107.89 E33.8063
G1 X148.427 Y108.028 E33.81513
G1 X146.449 Y109 E33.92509
G1 X146.271 Y109 E33.93397
G1 X144.235 Y107.998 E34.04718
G1 X144.182 Y107.866 E34.05427
