;FLAVOR:Marlin
;TIME:2956
;Filament used: 2.13886m
;Layer height: 0.2
;MINX:112.573
;MINY:80.057
;MINZ:0.3
;MAXX:157.445
;MAXY:124.943
;MAXZ:35.1
;Generated with Cura_SteamEngine 5.2.2
M140 S60
M105
M190 S60
M104 S190
M105
M109 S190
M82 ;absolute extrusion mode
G21 ;metric values
G90 ;absolute positioning
M82 ;set extruder to absolute mode
M107 ;start with the fan off
G28 X0 Y0 ;move X/Y to min endstops
G28 Z0 ;move Z to min endstops
;nozzle brush start
G1 X-3 Y40
G1 X-3 Y5
G1 X-3 Y40
G1 X-3 Y5
G1 Z15.0 F60 ;move the platform down 15mm
G92 E0 ;zero the extruded length
G1 F200 E3 ;extrude 3mm of feed stock
G92 E0 ;zero the extruded length again
G1 F60
M117 Printing...
G5
G92 E0
G92 E0
G1 F1500 E-6.5
;LAYER_COUNT:175
;LAYER:0
M107
M204 S300
M205 X8.18 Y8.18
G0 F1800 X117.876 Y99.677 Z0.3
M205 X3 Y3
;TYPE:SKIRT
G1 F1500 E0
G1 F1200 X131.73 Y85.821 E0.97755
G1 X132.211 Y85.353 E1.01103
G1 X132.643 Y84.988 E1.03924
G1 X133.122 Y84.688 E1.06744
G1 X133.638 Y84.459 E1.0956
G1 X134.182 Y84.304 E1.12382
G1 X134.742 Y84.228 E1.15202
G1 X135.308 Y84.232 E1.18026
G1 X135.867 Y84.315 E1.20845
G1 X136.409 Y84.476 E1.23666
G1 X136.922 Y84.712 E1.26483
G1 X137.398 Y85.018 E1.29306
G1 X137.826 Y85.378 E1.32097
G1 X151.679 Y99.229 E2.2983
G1 X152.147 Y99.71 E2.33178
G1 X152.512 Y100.142 E2.36
G1 X152.812 Y100.621 E2.38819
G1 X153.041 Y101.137 E2.41636
G1 X153.196 Y101.681 E2.44458
G1 X153.272 Y102.241 E2.47277
G1 X153.268 Y102.807 E2.50101
G1 X153.185 Y103.366 E2.52921
G1 X153.024 Y103.908 E2.55742
G1 X152.788 Y104.421 E2.58559
G1 X152.482 Y104.897 E2.61382
G1 X152.124 Y105.323 E2.64158
G1 X138.279 Y119.17 E3.61849
G1 X137.79 Y119.646 E3.65254
G1 X137.358 Y120.011 E3.68075
G1 X136.879 Y120.311 E3.70895
G1 X136.362 Y120.541 E3.73718
G1 X135.819 Y120.695 E3.76534
G1 X135.259 Y120.772 E3.79354
G1 X134.693 Y120.768 E3.82178
G1 X134.134 Y120.685 E3.84997
G1 X133.592 Y120.524 E3.87818
G1 X133.078 Y120.288 E3.9064
G1 X132.603 Y119.982 E3.93459
G1 X132.17 Y119.617 E3.96284
G1 X118.324 Y105.772 E4.93972
G1 X117.856 Y105.292 E4.97316
G1 X117.491 Y104.861 E5.00134
G1 X117.19 Y104.382 E5.02956
G1 X116.96 Y103.866 E5.05775
G1 X116.805 Y103.322 E5.08597
G1 X116.729 Y102.762 E5.11416
G1 X116.732 Y102.196 E5.1424
G1 X116.814 Y101.637 E5.17059
G1 X116.975 Y101.095 E5.1988
G1 X117.21 Y100.581 E5.22699
G1 X117.516 Y100.106 E5.25518
G1 X117.876 Y99.677 E5.28312
M205 X8.18 Y8.18
G0 F1800 X118.155 Y99.96
M205 X3 Y3
G1 F1200 X131.973 Y86.142 E6.25806
G1 X132.49 Y85.64 E6.29401
G1 X132.901 Y85.295 E6.32078
G1 X133.358 Y85.016 E6.3475
G1 X133.853 Y84.808 E6.37428
G1 X134.372 Y84.675 E6.40101
G1 X134.906 Y84.621 E6.42779
G1 X135.441 Y84.647 E6.45451
G1 X135.967 Y84.752 E6.48127
G1 X136.472 Y84.935 E6.50807
G1 X136.943 Y85.19 E6.53479
G1 X137.54 Y85.654 E6.57251
G1 X151.358 Y99.472 E7.54745
G1 X151.86 Y99.989 E7.5834
G1 X152.205 Y100.4 E7.61017
G1 X152.484 Y100.857 E7.63688
G1 X152.692 Y101.352 E7.66367
G1 X152.825 Y101.871 E7.6904
G1 X152.879 Y102.405 E7.71718
G1 X152.853 Y102.94 E7.7439
G1 X152.748 Y103.466 E7.77066
G1 X152.565 Y103.971 E7.79746
G1 X152.31 Y104.442 E7.82418
G1 X151.843 Y105.042 E7.86211
G1 X138 Y118.884 E8.83878
G1 X137.511 Y119.36 E8.87282
G1 X137.1 Y119.704 E8.89956
G1 X136.642 Y119.984 E8.92634
G1 X136.148 Y120.192 E8.95308
G1 X135.629 Y120.325 E8.97981
G1 X135.095 Y120.379 E9.00659
G1 X134.559 Y120.353 E9.03336
G1 X134.033 Y120.248 E9.06012
G1 X133.529 Y120.066 E9.08686
G1 X133.057 Y119.811 E9.11362
G1 X132.452 Y119.336 E9.152
G1 X118.61 Y105.493 E10.12866
G1 X118.142 Y105.013 E10.16211
G1 X117.798 Y104.602 E10.18885
G1 X117.518 Y104.145 E10.21558
G1 X117.309 Y103.651 E10.24235
G1 X117.176 Y103.131 E10.26912
G1 X117.121 Y102.598 E10.29586
G1 X117.147 Y102.062 E10.32263
G1 X117.251 Y101.536 E10.34938
G1 X117.433 Y101.032 E10.37611
G1 X117.688 Y100.56 E10.40288
G1 X118.155 Y99.96 E10.44081
M205 X8.18 Y8.18
G0 F1800 X118.471 Y100.21
M205 X3 Y3
G1 F1200 X132.287 Y86.394 E11.4156
G1 X132.768 Y85.926 E11.44909
G1 X133.158 Y85.604 E11.47432
G1 X133.593 Y85.346 E11.49955
G1 X134.063 Y85.16 E11.52477
G1 X134.556 Y85.051 E11.54996
G1 X135.061 Y85.021 E11.5752
G1 X135.564 Y85.07 E11.60041
G1 X136.053 Y85.198 E11.62563
G1 X136.516 Y85.402 E11.65087
G1 X136.941 Y85.676 E11.6761
G1 X137.492 Y86.172 E11.71309
G1 X151.106 Y99.786 E12.67363
G1 X151.574 Y100.267 E12.70711
G1 X151.896 Y100.657 E12.73234
G1 X152.154 Y101.092 E12.75757
G1 X152.34 Y101.562 E12.78279
G1 X152.449 Y102.055 E12.80798
G1 X152.479 Y102.56 E12.83322
G1 X152.43 Y103.063 E12.85843
G1 X152.302 Y103.552 E12.88365
G1 X152.098 Y104.015 E12.90889
G1 X151.824 Y104.44 E12.93412
G1 X151.405 Y104.912 E12.96561
G1 X137.721 Y118.597 E13.93112
G1 X137.232 Y119.073 E13.96517
G1 X136.843 Y119.396 E13.9904
G1 X136.408 Y119.654 E14.01563
G1 X135.938 Y119.839 E14.04083
G1 X135.444 Y119.949 E14.06608
G1 X134.94 Y119.979 E14.09127
G1 X134.437 Y119.93 E14.11648
G1 X133.947 Y119.802 E14.14175
G1 X133.485 Y119.598 E14.16694
G1 X133.06 Y119.325 E14.19214
G1 X132.702 Y119.021 E14.21557
G1 X118.897 Y105.214 E15.18966
G1 X118.429 Y104.734 E15.22311
G1 X118.106 Y104.345 E15.24833
G1 X117.848 Y103.91 E15.27357
G1 X117.661 Y103.44 E15.2988
G1 X117.551 Y102.947 E15.324
G1 X117.521 Y102.442 E15.34924
G1 X117.57 Y101.939 E15.37446
G1 X117.697 Y101.45 E15.39966
G1 X117.9 Y100.987 E15.42488
G1 X118.174 Y100.562 E15.45011
G1 X118.471 Y100.21 E15.47309
M205 X8.18 Y8.18
G1 F1500 E8.97309
;MESH:bulb.stl
G0 F1800 X120.53 Y101.737
G0 X121.293 Y102.5
G1 F1500 E15.47309
G0 F1800 X121.557 Y102.5
M205 X3 Y3
;TYPE:WALL-INNER
G1 F1200 X135 Y115.943 E16.42156
G1 X148.443 Y102.5 E17.37004
G1 X135 Y89.057 E18.31852
G1 X121.557 Y102.5 E19.26699
M205 X8.18 Y8.18
G0 F1800 X121.939 Y102.5
G0 X131.497 Y98.997
G0 X132.238 Y99.225
M205 X3 Y3
G1 F1200 X137.762 Y99.225 E19.54259
G1 X137.928 Y99.28 E19.55131
G1 X138.1 Y99.4 E19.56177
G1 X138.22 Y99.572 E19.57224
G1 X138.275 Y99.738 E19.58096
G1 X138.275 Y105.262 E19.85656
G1 X138.22 Y105.428 E19.86528
G1 X138.1 Y105.6 E19.87574
G1 X137.928 Y105.72 E19.88621
G1 X137.762 Y105.775 E19.89493
G1 X132.238 Y105.775 E20.17052
G1 X132.072 Y105.72 E20.17925
G1 X131.9 Y105.6 E20.18971
G1 X131.78 Y105.428 E20.20018
G1 X131.725 Y105.262 E20.2089
G1 X131.725 Y99.825 E20.48015
G1 X131.78 Y99.572 E20.49307
G1 X131.9 Y99.4 E20.50353
G1 X132.072 Y99.28 E20.514
G1 X132.238 Y99.225 E20.52272
M205 X8.18 Y8.18
G0 F1800 X132.201 Y99.667
M205 X3 Y3
;TYPE:WALL-OUTER
G1 F1200 X132.283 Y99.629 E20.52723
G1 X137.717 Y99.629 E20.79833
G1 X137.833 Y99.701 E20.80514
G1 X137.871 Y99.783 E20.80965
G1 X137.871 Y105.217 E21.08076
G1 X137.799 Y105.333 E21.08757
G1 X137.717 Y105.371 E21.09208
G1 X132.283 Y105.371 E21.36318
G1 X132.167 Y105.299 E21.36999
G1 X132.129 Y105.217 E21.3745
G1 X132.125 Y99.825 E21.64351
G1 X132.201 Y99.667 E21.65226
M205 X8.18 Y8.18
G0 F1800 X132.283 Y99.629
G0 X132.393 Y99.629
G0 X132.393 Y98.925
G0 X121.373 Y102.5
G0 X120.991 Y102.5
M205 X3 Y3
G1 F1200 X135 Y116.509 E22.64067
G1 X149.009 Y102.5 E23.62908
G1 X135 Y88.491 E24.61749
G1 X120.991 Y102.5 E25.6059
M205 X8.18 Y8.18
G0 F1800 X121.132 Y102.641
G0 X122.067 Y102.5
M205 X3 Y3
;TYPE:SKIN
G1 F1200 X124.79 Y105.222 E25.79799
G1 X135 Y115.433 E26.51839
G1 X147.933 Y102.5 E27.43088
G1 X135 Y89.567 E28.34338
G1 X122.067 Y102.5 E29.25587
M205 X8.18 Y8.18
G0 F1800 X131.741 Y106.075
G0 X131.741 Y105.939
M205 X3 Y3
G1 F1200 X131.543 Y105.726 E29.27038
G1 X131.365 Y105.285 E29.29411
G1 X131.365 Y99.704 E29.57254
G1 X131.523 Y99.3 E29.59418
G1 X131.714 Y99.084 E29.60857
G1 X132.169 Y98.865 E29.63376
G1 X137.83 Y98.865 E29.91619
G1 X138.286 Y99.083 E29.94141
G1 X138.553 Y99.437 E29.96353
G1 X138.635 Y99.715 E29.97799
G1 X138.635 Y105.296 E30.25643
G1 X138.477 Y105.7 E30.27807
G1 X138.286 Y105.916 E30.29245
G1 X137.831 Y106.135 E30.31765
G1 X132.216 Y106.135 E30.59778
G1 X131.741 Y105.939 E30.62342
M205 X8.18 Y8.18
G0 F1800 X131.741 Y106.075
G0 X135.256 Y114.892
M205 X3 Y3
G1 F1200 X122.606 Y102.241 E31.51598
M205 X8.18 Y8.18
G0 F1800 X122.889 Y101.959
M205 X3 Y3
G1 F1200 X135.539 Y114.609 E32.4085
M205 X8.18 Y8.18
G0 F1800 X135.822 Y114.326
M205 X3 Y3
G1 F1200 X123.172 Y101.676 E33.30103
M205 X8.18 Y8.18
G0 F1800 X123.455 Y101.393
M205 X3 Y3
G1 F1200 X136.105 Y114.043 E34.19355
M205 X8.18 Y8.18
G0 F1800 X136.388 Y113.76
M205 X3 Y3
G1 F1200 X123.738 Y101.11 E35.08608
M205 X8.18 Y8.18
G0 F1800 X124.02 Y100.827
M205 X3 Y3
G1 F1200 X136.671 Y113.477 E35.97864
M205 X8.18 Y8.18
G0 F1800 X136.953 Y113.195
M205 X3 Y3
G1 F1200 X124.303 Y100.544 E36.8712
M205 X8.18 Y8.18
G0 F1800 X124.586 Y100.262
M205 X3 Y3
G1 F1200 X137.236 Y112.912 E37.76373
M205 X8.18 Y8.18
G0 F1800 X137.519 Y112.629
M205 X3 Y3
G1 F1200 X124.869 Y99.979 E38.65625
M205 X8.18 Y8.18
G0 F1800 X125.152 Y99.696
M205 X3 Y3
G1 F1200 X137.802 Y112.346 E39.54878
M205 X8.18 Y8.18
G0 F1800 X138.085 Y112.063
M205 X3 Y3
G1 F1200 X132.356 Y106.335 E39.95296
M205 X8.18 Y8.18
G0 F1800 X132.922 Y106.335
M205 X3 Y3
G1 F1200 X138.368 Y111.78 E40.33717
M205 X8.18 Y8.18
G0 F1800 X138.65 Y111.498
M205 X3 Y3
G1 F1200 X133.488 Y106.335 E40.70141
M205 X8.18 Y8.18
G0 F1800 X134.054 Y106.335
M205 X3 Y3
G1 F1200 X138.933 Y111.215 E41.04568
M205 X8.18 Y8.18
G0 F1800 X139.216 Y110.932
M205 X3 Y3
G1 F1200 X134.619 Y106.335 E41.37003
M205 X8.18 Y8.18
G0 F1800 X135.185 Y106.335
M205 X3 Y3
G1 F1200 X139.499 Y110.649 E41.6744
M205 X8.18 Y8.18
G0 F1800 X139.782 Y110.366
M205 X3 Y3
G1 F1200 X135.751 Y106.335 E41.95881
M205 X8.18 Y8.18
G0 F1800 X136.316 Y106.335
M205 X3 Y3
G1 F1200 X140.065 Y110.083 E42.22329
M205 X8.18 Y8.18
G0 F1800 X140.347 Y109.8
M205 X3 Y3
G1 F1200 X136.882 Y106.335 E42.46776
M205 X8.18 Y8.18
G0 F1800 X137.448 Y106.335
M205 X3 Y3
G1 F1200 X140.63 Y109.518 E42.6923
M205 X8.18 Y8.18
G0 F1800 X140.913 Y109.235
M205 X3 Y3
G1 F1200 X137.969 Y106.291 E42.90002
M205 X8.18 Y8.18
G0 F1800 X138.347 Y106.103
M205 X3 Y3
G1 F1200 X141.196 Y108.952 E43.10103
M205 X8.18 Y8.18
G0 F1800 X141.479 Y108.669
M205 X3 Y3
G1 F1200 X138.632 Y105.822 E43.3019
M205 X8.18 Y8.18
G0 F1800 X138.805 Y105.43
M205 X3 Y3
G1 F1200 X141.762 Y108.386 E43.5105
M205 X8.18 Y8.18
G0 F1800 X142.045 Y108.103
M205 X3 Y3
G1 F1200 X138.834 Y104.892 E43.73705
M205 X8.18 Y8.18
G0 F1800 X138.834 Y104.327
M205 X3 Y3
G1 F1200 X142.327 Y107.821 E43.98354
M205 X8.18 Y8.18
G0 F1800 X142.61 Y107.538
M205 X3 Y3
G1 F1200 X138.834 Y103.761 E44.24999
M205 X8.18 Y8.18
G0 F1800 X138.834 Y103.195
M205 X3 Y3
G1 F1200 X142.893 Y107.255 E44.53641
M205 X8.18 Y8.18
G0 F1800 X143.176 Y106.972
M205 X3 Y3
G1 F1200 X138.834 Y102.63 E44.84276
M205 X8.18 Y8.18
G0 F1800 X138.834 Y102.064
M205 X3 Y3
G1 F1200 X143.459 Y106.689 E45.16908
M205 X8.18 Y8.18
G0 F1800 X143.742 Y106.406
M205 X3 Y3
G1 F1200 X138.834 Y101.498 E45.51537
M205 X8.18 Y8.18
G0 F1800 X138.834 Y100.933
M205 X3 Y3
G1 F1200 X144.024 Y106.123 E45.88155
M205 X8.18 Y8.18
G0 F1800 X144.307 Y105.841
M205 X3 Y3
G1 F1200 X138.834 Y100.367 E46.26773
M205 X8.18 Y8.18
G0 F1800 X138.834 Y99.801
M205 X3 Y3
G1 F1200 X144.59 Y105.558 E46.67389
M205 X8.18 Y8.18
G0 F1800 X144.873 Y105.275
M205 X3 Y3
G1 F1200 X132.223 Y92.625 E47.56641
M205 X8.18 Y8.18
G0 F1800 X131.94 Y92.908
M205 X3 Y3
G1 F1200 X137.697 Y98.664 E47.97256
M205 X8.18 Y8.18
G0 F1800 X137.131 Y98.664
M205 X3 Y3
G1 F1200 X131.657 Y93.191 E48.35875
M205 X8.18 Y8.18
G0 F1800 X131.374 Y93.473
M205 X3 Y3
G1 F1200 X136.565 Y98.664 E48.725
M205 X8.18 Y8.18
G0 F1800 X135.999 Y98.664
M205 X3 Y3
G1 F1200 X131.091 Y93.756 E49.07129
M205 X8.18 Y8.18
G0 F1800 X130.809 Y94.039
M205 X3 Y3
G1 F1200 X135.434 Y98.664 E49.39761
M205 X8.18 Y8.18
G0 F1800 X134.868 Y98.664
M205 X3 Y3
G1 F1200 X130.526 Y94.322 E49.70396
M205 X8.18 Y8.18
G0 F1800 X130.243 Y94.605
M205 X3 Y3
G1 F1200 X134.302 Y98.664 E49.99034
M205 X8.18 Y8.18
G0 F1800 X133.737 Y98.664
M205 X3 Y3
G1 F1200 X129.96 Y94.888 E50.2568
M205 X8.18 Y8.18
G0 F1800 X129.677 Y95.17
M205 X3 Y3
G1 F1200 X133.171 Y98.664 E50.50332
M205 X8.18 Y8.18
G0 F1800 X132.605 Y98.664
M205 X3 Y3
G1 F1200 X129.394 Y95.453 E50.72987
M205 X8.18 Y8.18
G0 F1800 X129.112 Y95.736
M205 X3 Y3
G1 F1200 X132.069 Y98.694 E50.93854
M205 X8.18 Y8.18
G0 F1800 X131.679 Y98.869
M205 X3 Y3
G1 F1200 X128.829 Y96.019 E51.13962
M205 X8.18 Y8.18
G0 F1800 X128.546 Y96.302
M205 X3 Y3
G1 F1200 X131.386 Y99.142 E51.34
M205 X8.18 Y8.18
G0 F1800 X131.205 Y99.526
M205 X3 Y3
G1 F1200 X128.263 Y96.585 E51.54754
M205 X8.18 Y8.18
G0 F1800 X127.98 Y96.867
M205 X3 Y3
G1 F1200 X131.164 Y100.052 E51.77222
M205 X8.18 Y8.18
G0 F1800 X131.164 Y100.617
M205 X3 Y3
G1 F1200 X127.697 Y97.15 E52.01684
M205 X8.18 Y8.18
G0 F1800 X127.414 Y97.433
M205 X3 Y3
G1 F1200 X131.164 Y101.183 E52.28142
M205 X8.18 Y8.18
G0 F1800 X131.164 Y101.749
M205 X3 Y3
G1 F1200 X127.132 Y97.716 E52.56593
M205 X8.18 Y8.18
G0 F1800 X126.849 Y97.999
M205 X3 Y3
G1 F1200 X131.164 Y102.314 E52.87038
M205 X8.18 Y8.18
G0 F1800 X131.164 Y102.88
M205 X3 Y3
G1 F1200 X126.566 Y98.282 E53.19479
M205 X8.18 Y8.18
G0 F1800 X126.283 Y98.565
M205 X3 Y3
G1 F1200 X131.164 Y103.446 E53.53917
M205 X8.18 Y8.18
G0 F1800 X131.164 Y104.011
M205 X3 Y3
G1 F1200 X126 Y98.847 E53.90352
M205 X8.18 Y8.18
G0 F1800 X125.717 Y99.13
M205 X3 Y3
G1 F1200 X131.164 Y104.577 E54.28784
M205 X8.18 Y8.18
G0 F1800 X131.164 Y105.143
M205 X3 Y3
G1 F1200 X125.435 Y99.413 E54.69208
G1 X125.365 Y99.343
M205 X8.18 Y8.18
G0 F1800 X132.506 Y92.342
M205 X3 Y3
G1 F1200 X145.156 Y104.992 E55.58461
M205 X8.18 Y8.18
G0 F1800 X145.439 Y104.709
M205 X3 Y3
G1 F1200 X132.788 Y92.059 E56.47717
M205 X8.18 Y8.18
G0 F1800 X133.071 Y91.776
M205 X3 Y3
G1 F1200 X145.721 Y104.426 E57.3697
M205 X8.18 Y8.18
G0 F1800 X146.004 Y104.144
M205 X3 Y3
G1 F1200 X133.354 Y91.493 E58.26226
M205 X8.18 Y8.18
G0 F1800 X133.637 Y91.211
M205 X3 Y3
G1 F1200 X146.287 Y103.861 E59.15478
M205 X8.18 Y8.18
G0 F1800 X146.57 Y103.578
M205 X3 Y3
G1 F1200 X133.92 Y90.928 E60.04731
M205 X8.18 Y8.18
G0 F1800 X134.203 Y90.645
M205 X3 Y3
G1 F1200 X146.853 Y103.295 E60.93984
M205 X8.18 Y8.18
G0 F1800 X147.136 Y103.012
M205 X3 Y3
G1 F1200 X134.486 Y90.362 E61.83236
M205 X8.18 Y8.18
G0 F1800 X134.768 Y90.079
M205 X3 Y3
G1 F1200 X147.419 Y102.729 E62.72492
G1 X147.489 Y102.799
M205 X8.18 Y8.18
G0 F1800 X147.394 Y102.703
;MESH:NONMESH
G0 F600 X147.394 Y102.703 Z0.5
G0 F1800 X138.503 Y106.003
G0 X131.497 Y106.003
G0 X121.939 Y102.5
G0 X121.304 Y102.5
;TIME_ELAPSED:82.982692
;LAYER:1
M106 S255
M205 X4 Y4
;TYPE:WALL-INNER
;MESH:bulb.stl
G1 F1650 X135 Y116.196 E63.36914
G1 X148.696 Y102.5 E64.01336
G1 X135 Y88.804 E64.65758
G1 X121.304 Y102.5 E65.30179
M204 S600
M205 X19.09 Y19.09
G0 F2700 X121.686 Y102.5
G0 X131.497 Y98.997
G0 X132.238 Y99.225
M204 S300
M205 X4 Y4
G1 F1650 X137.762 Y99.225 E65.48552
G1 X137.928 Y99.28 E65.49134
G1 X138.1 Y99.4 E65.49832
G1 X138.22 Y99.572 E65.50529
G1 X138.275 Y99.738 E65.51111
G1 X138.275 Y105.262 E65.69484
G1 X138.22 Y105.428 E65.70065
G1 X138.1 Y105.6 E65.70763
G1 X137.928 Y105.72 E65.7146
G1 X137.762 Y105.775 E65.72042
G1 X132.238 Y105.775 E65.90415
G1 X132.072 Y105.72 E65.90997
G1 X131.9 Y105.6 E65.91694
G1 X131.78 Y105.428 E65.92392
G1 X131.725 Y105.262 E65.92973
G1 X131.725 Y99.825 E66.11057
G1 X131.78 Y99.572 E66.11918
G1 X131.9 Y99.4 E66.12615
G1 X132.072 Y99.28 E66.13313
G1 X132.238 Y99.225 E66.13895
M204 S600
M205 X19.09 Y19.09
G0 F2700 X132.201 Y99.667
M204 S300
M205 X3 Y3
;TYPE:WALL-OUTER
G1 F1320 X132.283 Y99.629 E66.14195
G1 X137.717 Y99.629 E66.32269
G1 X137.833 Y99.701 E66.32723
G1 X137.871 Y99.783 E66.33023
G1 X137.871 Y105.217 E66.51097
G1 X137.799 Y105.333 E66.51551
G1 X137.717 Y105.371 E66.51852
G1 X132.283 Y105.371 E66.69925
G1 X132.167 Y105.299 E66.70379
G1 X132.129 Y105.217 E66.7068
G1 X132.125 Y99.825 E66.88614
G1 X132.201 Y99.667 E66.89197
M204 S600
M205 X19.09 Y19.09
G0 F2700 X132.283 Y99.629
G0 X132.393 Y99.629
G0 X132.393 Y98.925
G0 X121.12 Y102.5
G0 X120.738 Y102.5
M204 S300
M205 X3 Y3
G1 F1320 X135 Y116.762 E67.56281
G1 X149.262 Y102.5 E68.23365
G1 X135 Y88.238 E68.90449
G1 X120.738 Y102.5 E69.57533
M204 S600
M205 X19.09 Y19.09
G0 F2700 X120.879 Y102.641
G0 X121.814 Y102.5
M204 S300
M205 X3 Y3
;TYPE:SKIN
G1 F1290 X135 Y115.686 E70.19556
