;FLAVOR:Marlin
;TIME:27414
;Filament used: 22.5835m
;Layer height: 0.2
;MINX:43.021
;MINY:60.657
;MINZ:0.3
;MAXX:200.403
;MAXY:164.518
;MAXZ:35.1
;Generated with Cura_SteamEngine 5.2.2
M140 S60
M105
M190 S60
M104 S190
M105
M109 S190
M82 ;absolute extrusion mode
G21 ;metric values
G90 ;absolute positioning
M82 ;set extruder to absolute mode
M107 ;start with the fan off
G28 X0 Y0 ;move X/Y to min endstops
G28 Z0 ;move Z to min endstops
;nozzle brush start
G1 X-3 Y40
G1 X-3 Y5
G1 X-3 Y40
G1 X-3 Y5
G1 Z15.0 F60 ;move the platform down 15mm
G92 E0 ;zero the extruded length
G1 F200 E3 ;extrude 3mm of feed stock
G92 E0 ;zero the extruded length again
G1 F60
M117 Printing...
G5
G92 E0
G92 E0
G1 F1500 E-6.5
;LAYER_COUNT:175
;LAYER:0
M107
M204 S300
M205 X8.18 Y8.18
G0 F1800 X71.292 Y61.791 Z0.3
M205 X3 Y3
;TYPE:SKIRT
G1 F1500 E0
G1 F1200 X71.65 Y61.433 E0.02526
G1 X72.059 Y61.136 E0.05048
G1 X72.51 Y60.908 E0.07569
G1 X72.991 Y60.753 E0.1009
G1 X73.719 Y60.657 E0.13754
G1 X123.06 Y60.657 E2.59917
G1 X123.762 Y60.667 E2.63419
G1 X124.345 Y60.721 E2.6634
G1 X125.671 Y61.085 E2.73201
G1 X126.398 Y61.296 E2.76977
G1 X129.027 Y61.978 E2.90528
G1 X131.701 Y62.591 E3.04214
G1 X134.376 Y63.126 E3.17824
G1 X137.106 Y63.591 E3.3164
G1 X139.772 Y63.969 E3.45074
G1 X142.508 Y64.277 E3.5881
G1 X145.25 Y64.509 E3.72539
G1 X147.966 Y64.661 E3.86111
G1 X150.717 Y64.737 E3.99841
G1 X153.433 Y64.735 E4.13391
G1 X155.181 Y64.672 E4.22117
G1 X155.354 Y64.68 E4.22981
G1 X156.939 Y64.633 E4.30892
G1 X196.537 Y64.632 E6.28448
G1 X197.235 Y64.641 E6.3193
G1 X197.739 Y64.688 E6.34456
G1 X198.229 Y64.813 E6.36978
G1 X198.693 Y65.014 E6.39501
G1 X199.119 Y65.285 E6.4202
G1 X199.498 Y65.62 E6.44544
G1 X199.819 Y66.011 E6.47068
G1 X200.074 Y66.447 E6.49588
G1 X200.258 Y66.918 E6.5211
G1 X200.365 Y67.412 E6.54632
G1 X200.402 Y67.86 E6.56875
G1 X200.403 Y84.67 E7.4074
G1 X200.393 Y85.375 E7.44258
G1 X200.346 Y85.879 E7.46783
G1 X200.203 Y86.435 E7.49647
G1 X199.46 Y88.123 E7.58849
G1 X198.397 Y90.663 E7.72586
G1 X197.395 Y93.261 E7.86478
G1 X196.508 Y95.772 E7.99764
G1 X195.666 Y98.39 E8.13484
G1 X194.895 Y101.037 E8.27239
G1 X194.206 Y103.683 E8.4088
G1 X193.594 Y106.332 E8.54444
G1 X193.046 Y109.065 E8.6835
G1 X192.586 Y111.746 E8.81921
G1 X192.328 Y113.483 E8.90682
G1 X192.214 Y113.976 E8.93207
G1 X192.025 Y114.444 E8.95725
G1 X191.763 Y114.877 E8.9825
G1 X191.425 Y115.29 E9.00912
G1 X177.599 Y129.115 E9.98459
G1 X177.107 Y129.593 E10.01881
G1 X176.718 Y129.916 E10.04403
G1 X176.282 Y130.173 E10.06928
G1 X175.739 Y130.387 E10.0984
G1 X174.529 Y130.64 E10.16008
G1 X173.742 Y130.792 E10.20006
G1 X171.096 Y131.382 E10.33532
G1 X168.479 Y132.043 E10.46998
G1 X165.808 Y132.799 E10.60847
G1 X163.207 Y133.616 E10.74449
G1 X160.602 Y134.515 E10.88197
G1 X158.052 Y135.477 E11.01794
G1 X155.498 Y136.524 E11.15565
G1 X153.02 Y137.623 E11.2909
G1 X150.544 Y138.805 E11.42778
G1 X148.105 Y140.057 E11.56455
G1 X145.717 Y141.367 E11.70044
G1 X143.346 Y142.759 E11.83761
G1 X141.022 Y144.211 E11.97433
G1 X138.746 Y145.724 E12.11068
G1 X136.495 Y147.317 E12.24826
G1 X134.307 Y148.958 E12.38471
G1 X132.354 Y150.505 E12.50901
G1 X131.935 Y150.787 E12.5342
G1 X131.476 Y150.999 E12.55943
G1 X130.989 Y151.136 E12.58467
G1 X130.375 Y151.206 E12.6155
G1 X62.733 Y151.207 E15.99017
G1 X62.033 Y151.197 E16.0251
G1 X61.53 Y151.15 E16.0503
G1 X61.04 Y151.024 E16.07554
G1 X60.577 Y150.822 E16.10074
G1 X60.15 Y150.55 E16.126
G1 X59.772 Y150.215 E16.1512
G1 X59.452 Y149.824 E16.17641
G1 X59.204 Y149.402 E16.20083
G1 X58.722 Y148.416 E16.25558
G1 X58.449 Y147.835 E16.28761
G1 X57.23 Y145.416 E16.42275
G1 X55.926 Y143.004 E16.55955
G1 X54.547 Y140.618 E16.69704
G1 X53.129 Y138.316 E16.83192
G1 X51.617 Y136.009 E16.96954
G1 X50.025 Y133.726 E17.1084
G1 X48.417 Y131.551 E17.24334
G1 X46.762 Y129.442 E17.37709
G1 X44.97 Y127.286 E17.51696
G1 X44.557 Y126.817 E17.54813
G1 X43.802 Y125.937 E17.60598
G1 X43.504 Y125.528 E17.63123
G1 X43.275 Y125.078 E17.65642
G1 X43.119 Y124.597 E17.68165
G1 X43.021 Y123.861 E17.71869
G1 X43.021 Y104.518 E18.68372
G1 X43.031 Y103.816 E18.71874
G1 X43.078 Y103.313 E18.74395
G1 X43.204 Y102.823 E18.76919
G1 X43.406 Y102.36 E18.79439
G1 X43.825 Y101.752 E18.83123
G1 X45.919 Y99.31 E18.99172
G1 X47.612 Y97.211 E19.12626
G1 X49.263 Y95.042 E19.26225
G1 X50.876 Y92.794 E19.40029
G1 X52.407 Y90.527 E19.53676
G1 X53.872 Y88.22 E19.67311
G1 X55.274 Y85.868 E19.80971
G1 X56.612 Y83.471 E19.94667
G1 X57.871 Y81.059 E20.08241
G1 X59.195 Y78.325 E20.23396
G1 X59.505 Y77.797 E20.26451
G1 X60.42 Y76.753 E20.33377
G1 X62.203 Y74.666 E20.47072
G1 X63.913 Y72.545 E20.60664
G1 X65.575 Y70.359 E20.74364
G1 X67.18 Y68.12 E20.88108
G1 X68.689 Y65.885 E21.01562
G1 X70.195 Y63.512 E21.15584
G1 X70.996 Y62.2 E21.23253
G1 X71.292 Y61.791 E21.25772
M205 X8.18 Y8.18
G1 F1500 E14.75772
;MESH:base_plate.stl
G0 F1800 X71.292 Y79.042
G0 X71.293 Y80.107
G0 X62.971 Y123.494
G1 F1500 E21.25772
G0 F1800 X62.549 Y123.494
M205 X3 Y3
;TYPE:WALL-INNER
G1 F1200 X62.67 Y123.745 E21.27162
G1 X62.671 Y147.407 E22.45212
G1 X129.771 Y147.407 E25.79975
G1 X129.776 Y130.78 E26.62928
G1 X129.871 Y130.525 E26.64285
G1 X130.089 Y130.327 E26.65755
G1 X130.329 Y130.258 E26.67001
G1 X145.621 Y130.257 E27.43293
G1 X145.621 Y97.457 E29.06933
G1 X130.318 Y97.455 E29.8328
G1 X130.107 Y97.397 E29.84371
G1 X129.857 Y97.169 E29.86059
G1 X129.772 Y96.903 E29.87453
G1 X129.771 Y80.307 E30.7025
G1 X123.652 Y80.303 E31.00778
G1 X123.366 Y80.191 E31.0231
G1 X123.257 Y80.088 E31.03059
G1 X123.121 Y79.827 E31.04527
G1 X123.121 Y64.457 E31.81208
G1 X74.321 Y64.457 E34.24672
G1 X74.319 Y79.766 E35.01049
G1 X74.237 Y80.014 E35.02352
G1 X74.083 Y80.186 E35.03504
G1 X73.942 Y80.265 E35.04311
G1 X73.76 Y80.305 E35.0524
G1 X62.671 Y80.307 E35.60564
G1 X62.668 Y103.915 E36.78344
G1 X62.604 Y104.132 E36.79473
G1 X62.497 Y104.28 E36.80384
G1 X62.288 Y104.417 E36.81631
G1 X62.117 Y104.456 E36.82506
G1 X46.821 Y104.457 E37.58818
G1 X46.821 Y123.257 E38.52612
G1 X62.123 Y123.259 E39.28954
G1 X62.415 Y123.365 E39.30503
G1 X62.549 Y123.494 E39.31431
M205 X8.18 Y8.18
G0 F1800 X62.971 Y123.494
G0 X62.97 Y103.994
G0 X62.218 Y103.993
M205 X3 Y3
;TYPE:WALL-OUTER
G1 F1200 X62.088 Y104.057 E39.32154
G1 X46.421 Y104.057 E40.10317
G1 X46.421 Y123.657 E41.08102
G1 X62.127 Y123.657 E41.8646
G1 X62.239 Y123.748 E41.8718
G1 X62.27 Y123.838 E41.87654
G1 X62.271 Y147.807 E43.07236
G1 X130.171 Y147.807 E46.45991
G1 X130.172 Y130.839 E47.30644
G1 X130.216 Y130.73 E47.31231
G1 X130.316 Y130.657 E47.31849
G1 X146.021 Y130.657 E48.10201
G1 X146.021 Y97.057 E49.77832
G1 X130.338 Y97.055 E50.56075
G1 X130.215 Y96.984 E50.56784
G1 X130.173 Y96.892 E50.57288
G1 X130.171 Y79.907 E51.42027
G1 X123.698 Y79.905 E51.74321
G1 X123.602 Y79.868 E51.74834
G1 X123.521 Y79.726 E51.75649
G1 X123.521 Y64.057 E52.53822
G1 X73.921 Y64.057 E55.01278
G1 X73.921 Y79.726 E55.79451
G1 X73.876 Y79.834 E55.80035
G1 X73.774 Y79.905 E55.80655
G1 X62.271 Y79.907 E56.38043
G1 X62.269 Y103.885 E57.5767
G1 X62.218 Y103.993 E57.58266
M205 X8.18 Y8.18
G0 F1800 X62.088 Y104.057
G0 X62.032 Y104.057
G0 X62.032 Y104.757
G0 X62.898 Y104.685
G0 X74.045 Y80.614
M205 X3 Y3
;TYPE:SKIN
G1 F1200 X73.795 Y80.664 E57.59538
G1 X63.031 Y80.667 E58.1324
G1 X63.029 Y103.919 E59.29244
G1 X62.924 Y104.3 E59.31216
G1 X62.785 Y104.502 E59.32439
G1 X62.501 Y104.715 E59.3421
G1 X62.152 Y104.814 E59.3602
G1 X47.182 Y104.817 E60.10706
G1 X47.182 Y122.896 E61.00902
G1 X62.153 Y122.9 E61.75593
G1 X62.49 Y122.991 E61.77335
G1 X62.674 Y123.109 E61.78425
G1 X62.906 Y123.378 E61.80197
G1 X63.029 Y123.789 E61.82338
G1 X63.031 Y147.047 E62.98372
G1 X129.411 Y147.047 E66.29543
G1 X129.412 Y130.802 E67.1059
G1 X129.488 Y130.476 E67.1226
G1 X129.773 Y130.104 E67.14598
G1 X130.027 Y129.958 E67.1606
G1 X130.295 Y129.899 E67.17429
G1 X145.261 Y129.897 E67.92094
G1 X145.261 Y97.818 E69.52137
G1 X130.207 Y97.816 E70.27242
G1 X129.799 Y97.63 E70.29479
G1 X129.608 Y97.443 E70.30813
G1 X129.455 Y97.158 E70.32426
G1 X129.413 Y96.932 E70.33573
G1 X129.411 Y80.667 E71.1472
G1 X123.587 Y80.665 E71.43776
G1 X123.318 Y80.578 E71.45186
G1 X123.088 Y80.431 E71.46548
G1 X122.881 Y80.174 E71.48194
G1 X122.77 Y79.848 E71.49912
G1 X122.761 Y64.817 E72.24902
G1 X74.682 Y64.817 E74.6477
G1 X74.679 Y79.856 E75.39799
G1 X74.527 Y80.228 E75.41804
G1 X74.319 Y80.46 E75.43359
G1 X74.045 Y80.614 E75.44927
M205 X8.18 Y8.18
G0 F1800 X122.56 Y65.426
M205 X3 Y3
G1 F1200 X122.151 Y65.017 E75.47813
M205 X8.18 Y8.18
G0 F1800 X121.585 Y65.017
M205 X3 Y3
G1 F1200 X122.56 Y65.992 E75.54692
M205 X8.18 Y8.18
G0 F1800 X122.56 Y66.557
M205 X3 Y3
G1 F1200 X121.019 Y65.017 E75.65561
M205 X8.18 Y8.18
G0 F1800 X120.454 Y65.017
M205 X3 Y3
G1 F1200 X122.561 Y67.124 E75.80427
M205 X8.18 Y8.18
G0 F1800 X122.561 Y67.689
M205 X3 Y3
G1 F1200 X119.888 Y65.017 E75.99283
M205 X8.18 Y8.18
G0 F1800 X119.322 Y65.017
M205 X3 Y3
G1 F1200 X122.561 Y68.255 E76.22132
M205 X8.18 Y8.18
G0 F1800 X122.562 Y68.821
M205 X3 Y3
G1 F1200 X118.757 Y65.017 E76.48975
M205 X8.18 Y8.18
G0 F1800 X118.191 Y65.017
M205 X3 Y3
G1 F1200 X122.562 Y69.387 E76.79811
M205 X8.18 Y8.18
G0 F1800 X122.562 Y69.953
M205 X3 Y3
G1 F1200 X117.625 Y65.017 E77.14641
M205 X8.18 Y8.18
G0 F1800 X117.06 Y65.017
M205 X3 Y3
G1 F1200 X122.562 Y70.519 E77.53461
M205 X8.18 Y8.18
G0 F1800 X122.562 Y71.085
M205 X3 Y3
G1 F1200 X116.494 Y65.017 E77.96274
M205 X8.18 Y8.18
G0 F1800 X115.928 Y65.017
M205 X3 Y3
G1 F1200 X122.563 Y71.651 E78.43084
M205 X8.18 Y8.18
G0 F1800 X122.563 Y72.217
M205 X3 Y3
G1 F1200 X115.363 Y65.017 E78.93883
M205 X8.18 Y8.18
G0 F1800 X114.797 Y65.017
M205 X3 Y3
G1 F1200 X122.563 Y72.783 E79.48677
M205 X8.18 Y8.18
G0 F1800 X122.564 Y73.349
M205 X3 Y3
G1 F1200 X114.231 Y65.017 E80.07467
M205 X8.18 Y8.18
G0 F1800 X113.666 Y65.017
M205 X3 Y3
G1 F1200 X122.564 Y73.915 E80.70247
M205 X8.18 Y8.18
G0 F1800 X122.564 Y74.48
M205 X3 Y3
G1 F1200 X113.1 Y65.017 E81.37017
M205 X8.18 Y8.18
G0 F1800 X112.534 Y65.017
M205 X3 Y3
G1 F1200 X122.564 Y75.047 E82.07784
M205 X8.18 Y8.18
G0 F1800 X122.564 Y75.613
M205 X3 Y3
G1 F1200 X111.968 Y65.017 E82.82545
M205 X8.18 Y8.18
G0 F1800 X111.403 Y65.017
M205 X3 Y3
G1 F1200 X122.564 Y76.178 E83.61292
M205 X8.18 Y8.18
G0 F1800 X122.565 Y76.745
M205 X3 Y3
G1 F1200 X110.837 Y65.017 E84.44039
M205 X8.18 Y8.18
G0 F1800 X110.271 Y65.017
M205 X3 Y3
G1 F1200 X122.565 Y77.31 E85.30776
M205 X8.18 Y8.18
G0 F1800 X122.565 Y77.876
M205 X3 Y3
G1 F1200 X109.706 Y65.017 E86.21504
M205 X8.18 Y8.18
G0 F1800 X109.14 Y65.017
M205 X3 Y3
G1 F1200 X122.566 Y78.442 E87.16228
M205 X8.18 Y8.18
G0 F1800 X122.566 Y79.008
M205 X3 Y3
G1 F1200 X108.574 Y65.017 E88.14945
M205 X8.18 Y8.18
G0 F1800 X108.009 Y65.017
M205 X3 Y3
G1 F1200 X122.566 Y79.574 E89.17653
M205 X8.18 Y8.18
G0 F1800 X122.756 Y80.33
M205 X3 Y3
G1 F1200 X107.443 Y65.017 E90.25694
M205 X8.18 Y8.18
G0 F1800 X106.877 Y65.017
M205 X3 Y3
G1 F1200 X129.212 Y87.351 E91.83276
M205 X8.18 Y8.18
G0 F1800 X129.212 Y86.786
M205 X3 Y3
G1 F1200 X123.116 Y80.69 E92.26287
M205 X8.18 Y8.18
G0 F1800 X123.858 Y80.866
M205 X3 Y3
G1 F1200 X129.211 Y86.219 E92.64055
M205 X8.18 Y8.18
G0 F1800 X129.211 Y85.653
M205 X3 Y3
G1 F1200 X124.423 Y80.866 E92.97834
M205 X8.18 Y8.18
G0 F1800 X124.989 Y80.866
M205 X3 Y3
G1 F1200 X129.211 Y85.088 E93.27622
M205 X8.18 Y8.18
G0 F1800 X129.211 Y84.522
M205 X3 Y3
G1 F1200 X125.555 Y80.866 E93.53417
M205 X8.18 Y8.18
G0 F1800 X126.12 Y80.866
M205 X3 Y3
G1 F1200 X129.211 Y83.956 E93.75222
M205 X8.18 Y8.18
G0 F1800 X129.211 Y83.39
M205 X3 Y3
G1 F1200 X126.687 Y80.866 E93.9303
M205 X8.18 Y8.18
G0 F1800 X127.253 Y80.866
M205 X3 Y3
G1 F1200 X129.211 Y82.824 E94.06845
M205 X8.18 Y8.18
G0 F1800 X129.211 Y82.259
M205 X3 Y3
G1 F1200 X127.818 Y80.866 E94.16674
M205 X8.18 Y8.18
G0 F1800 X128.384 Y80.866
M205 X3 Y3
G1 F1200 X129.211 Y81.693 E94.22508
M205 X8.18 Y8.18
G0 F1800 X129.211 Y81.127
M205 X3 Y3
G1 F1200 X128.95 Y80.866 E94.2435
M205 X8.18 Y8.18
G0 F1800 X129.212 Y87.917
M205 X3 Y3
G1 F1200 X106.312 Y65.017 E95.85922
M205 X8.18 Y8.18
G0 F1800 X105.746 Y65.017
M205 X3 Y3
G1 F1200 X129.212 Y88.483 E97.51487
M205 X8.18 Y8.18
G0 F1800 X129.213 Y89.049
M205 X3 Y3
G1 F1200 X105.18 Y65.017 E99.21049
M205 X8.18 Y8.18
G0 F1800 X104.615 Y65.017
M205 X3 Y3
G1 F1200 X129.213 Y89.615 E100.94602
M205 X8.18 Y8.18
G0 F1800 X129.213 Y90.18
M205 X3 Y3
G1 F1200 X104.049 Y65.017 E102.72144
M205 X8.18 Y8.18
G0 F1800 X103.483 Y65.017
M205 X3 Y3
G1 F1200 X129.213 Y90.746 E104.53679
M205 X8.18 Y8.18
G0 F1800 X129.213 Y91.312
M205 X3 Y3
G1 F1200 X102.917 Y65.017 E106.39208
M205 X8.18 Y8.18
G0 F1800 X102.352 Y65.017
M205 X3 Y3
G1 F1200 X129.213 Y91.878 E108.28727
M205 X8.18 Y8.18
G0 F1800 X129.213 Y92.444
M205 X3 Y3
G1 F1200 X101.786 Y65.017 E110.22239
M205 X8.18 Y8.18
G0 F1800 X101.22 Y65.017
M205 X3 Y3
G1 F1200 X129.213 Y93.009 E112.19742
M205 X8.18 Y8.18
G0 F1800 X129.213 Y93.575
M205 X3 Y3
G1 F1200 X100.655 Y65.017 E114.21234
M205 X8.18 Y8.18
G0 F1800 X100.089 Y65.017
M205 X3 Y3
G1 F1200 X129.213 Y94.141 E116.26719
M205 X8.18 Y8.18
G0 F1800 X129.214 Y94.707
M205 X3 Y3
G1 F1200 X99.523 Y65.017 E118.36202
M205 X8.18 Y8.18
G0 F1800 X98.958 Y65.017
M205 X3 Y3
G1 F1200 X129.214 Y95.273 E120.49674
M205 X8.18 Y8.18
G0 F1800 X129.214 Y95.839
M205 X3 Y3
G1 F1200 X98.392 Y65.017 E122.6714
M205 X8.18 Y8.18
G0 F1800 X97.826 Y65.017
M205 X3 Y3
G1 F1200 X129.214 Y96.404 E124.88596
M205 X8.18 Y8.18
G0 F1800 X129.217 Y96.973
M205 X3 Y3
G1 F1200 X97.261 Y65.017 E127.14063
M205 X8.18 Y8.18
G0 F1800 X96.695 Y65.017
M205 X3 Y3
G1 F1200 X145.06 Y113.381 E130.553
M205 X8.18 Y8.18
G0 F1800 X145.06 Y112.816
M205 X3 Y3
G1 F1200 X130.26 Y98.016 E131.59722
M205 X8.18 Y8.18
G0 F1800 X130.826 Y98.016
M205 X3 Y3
G1 F1200 X145.06 Y112.25 E132.60151
M205 X8.18 Y8.18
G0 F1800 X145.06 Y111.684
M205 X3 Y3
G1 F1200 X131.391 Y98.016 E133.56589
M205 X8.18 Y8.18
G0 F1800 X131.957 Y98.016
M205 X3 Y3
G1 F1200 X145.06 Y111.119 E134.49038
M205 X8.18 Y8.18
G0 F1800 X145.06 Y110.553
M205 X3 Y3
G1 F1200 X132.523 Y98.016 E135.37494
M205 X8.18 Y8.18
G0 F1800 X133.088 Y98.016
M205 X3 Y3
G1 F1200 X145.06 Y109.987 E136.21959
M205 X8.18 Y8.18
G0 F1800 X145.06 Y109.421
M205 X3 Y3
G1 F1200 X133.654 Y98.016 E137.02431
M205 X8.18 Y8.18
G0 F1800 X134.22 Y98.016
M205 X3 Y3
G1 F1200 X145.06 Y108.856 E137.78913
M205 X8.18 Y8.18
G0 F1800 X145.06 Y108.29
M205 X3 Y3
G1 F1200 X134.785 Y98.016 E138.51405
M205 X8.18 Y8.18
G0 F1800 X135.352 Y98.017
M205 X3 Y3
G1 F1200 X145.06 Y107.724 E139.19897
M205 X8.18 Y8.18
G0 F1800 X145.06 Y107.159
M205 X3 Y3
G1 F1200 X135.917 Y98.017 E139.84402
M205 X8.18 Y8.18
G0 F1800 X136.483 Y98.017
M205 X3 Y3
G1 F1200 X145.06 Y106.593 E140.44914
M205 X8.18 Y8.18
G0 F1800 X145.06 Y106.027
M205 X3 Y3
G1 F1200 X137.049 Y98.017 E141.01432
M205 X8.18 Y8.18
G0 F1800 X137.615 Y98.017
M205 X3 Y3
G1 F1200 X145.06 Y105.462 E141.53961
M205 X8.18 Y8.18
G0 F1800 X145.06 Y104.896
M205 X3 Y3
G1 F1200 X138.18 Y98.017 E142.02499
M205 X8.18 Y8.18
G0 F1800 X138.746 Y98.017
M205 X3 Y3
G1 F1200 X145.06 Y104.33 E142.47044
M205 X8.18 Y8.18
G0 F1800 X145.06 Y103.765
M205 X3 Y3
G1 F1200 X139.312 Y98.017 E142.876
M205 X8.18 Y8.18
G0 F1800 X139.877 Y98.017
M205 X3 Y3
G1 F1200 X145.06 Y103.199 E143.24165
M205 X8.18 Y8.18
G0 F1800 X145.06 Y102.633
M205 X3 Y3
G1 F1200 X140.444 Y98.017 E143.56733
M205 X8.18 Y8.18
G0 F1800 X141.009 Y98.017
M205 X3 Y3
G1 F1200 X145.06 Y102.068 E143.85315
M205 X8.18 Y8.18
G0 F1800 X145.06 Y101.502
M205 X3 Y3
G1 F1200 X141.575 Y98.017 E144.09904
M205 X8.18 Y8.18
G0 F1800 X142.141 Y98.017
M205 X3 Y3
G1 F1200 X145.06 Y100.936 E144.30499
M205 X8.18 Y8.18
G0 F1800 X145.06 Y100.37
M205 X3 Y3
G1 F1200 X142.706 Y98.017 E144.47104
M205 X8.18 Y8.18
G0 F1800 X143.272 Y98.017
M205 X3 Y3
G1 F1200 X145.06 Y99.805 E144.5972
M205 X8.18 Y8.18
G0 F1800 X145.06 Y99.239
M205 X3 Y3
G1 F1200 X143.838 Y98.017 E144.68342
M205 X8.18 Y8.18
G0 F1800 X144.403 Y98.017
M205 X3 Y3
G1 F1200 X145.06 Y98.673 E144.72973
M205 X8.18 Y8.18
G0 F1800 X145.06 Y98.108
M205 X3 Y3
G1 F1200 X144.969 Y98.017 E144.73616
M205 X8.18 Y8.18
G0 F1800 X145.06 Y113.947
M205 X3 Y3
G1 F1200 X96.129 Y65.017 E148.18847
M205 X8.18 Y8.18
